;START_OF_HEADER
;HEADER_VERSION:0.1
;FLAVOR:Griffin
;GENERATOR.NAME:Cura_SteamEngine
;GENERATOR.VERSION:2.5.0
;GENERATOR.BUILD_DATE:2017-04-19
;TARGET_MACHINE.NAME:Ultimaker 3
;EXTRUDER_TRAIN.0.INITIAL_TEMPERATURE:200
;EXTRUDER_TRAIN.0.MATERIAL.VOLUME_USED:130
;EXTRUDER_TRAIN.0.MATERIAL.GUID:506c9f0d-e3aa-4bd4-b2d2-23e2425b1aa9
;EXTRUDER_TRAIN.0.NOZZLE.DIAMETER:0.4
;BUILD_PLATE.INITIAL_TEMPERATURE:55
;PRINT.TIME:1056
;PRINT.SIZE.MIN.X:9
;PRINT.SIZE.MIN.Y:6
;PRINT.SIZE.MIN.Z:0.27
;PRINT.SIZE.MAX.X:130.356
;PRINT.SIZE.MAX.Y:121.365
;PRINT.SIZE.MAX.Z:2
;END_OF_HEADER
;Generated with Cura_SteamEngine 2.5.0

T0
G92 E0

M109 S200
G0 F15000 X9 Y6 Z2
G280
G1 F1500 E-6.5
;LAYER_COUNT:24
;LAYER:0
M107
M204 S625
M205 X6
G0 F5000 X129.207 Y120.253 Z0.27
M204 S500
M205 X5
;TYPE:SKIRT
G1 F1500 E0
G1 F1200 X128.783 Y120.613 E0.00824
G1 X128.312 Y120.91 E0.01649
G1 X127.804 Y121.135 E0.02472
G1 X127.268 Y121.286 E0.03297
G1 X126.49 Y121.365 E0.04455
G1 X106.51 Y121.364 E0.34052
G1 X105.955 Y121.324 E0.34876
G1 X105.411 Y121.205 E0.35701
G1 X104.89 Y121.009 E0.36526
G1 X104.403 Y120.741 E0.37349
G1 X103.959 Y120.406 E0.38173
G1 X103.567 Y120.01 E0.38999
G1 X103.237 Y119.563 E0.39822
G1 X102.973 Y119.073 E0.40646
G1 X102.783 Y118.55 E0.4147
G1 X102.67 Y118.005 E0.42295
G1 X102.635 Y117.489 E0.43061
G1 X102.635 Y97.51 E0.72657
G1 X102.675 Y96.955 E0.73481
G1 X102.794 Y96.411 E0.74306
G1 X102.99 Y95.891 E0.75129
G1 X103.258 Y95.403 E0.75954
G1 X103.593 Y94.959 E0.76778
G1 X103.989 Y94.568 E0.77602
G1 X104.436 Y94.237 E0.78426
G1 X104.926 Y93.973 E0.7925
G1 X105.449 Y93.783 E0.80075
G1 X105.994 Y93.67 E0.80899
G1 X106.51 Y93.635 E0.81665
G1 X125.99 Y93.636 E1.10522
G1 X126.545 Y93.676 E1.11346
G1 X127.089 Y93.795 E1.12171
G1 X127.61 Y93.991 E1.12995
G1 X128.097 Y94.259 E1.13819
G1 X128.541 Y94.594 E1.14643
G1 X128.933 Y94.99 E1.15468
G1 X129.263 Y95.437 E1.16291
G1 X129.527 Y95.927 E1.17116
G1 X129.717 Y96.45 E1.1794
G1 X129.83 Y96.995 E1.18764
G1 X129.865 Y97.507 E1.19525
G1 X129.874 Y106.974 E1.33548
G1 X130.029 Y112.469 E1.41692
G1 X130.356 Y117.225 E1.48753
G1 X130.354 Y117.781 E1.49577
G1 X130.273 Y118.331 E1.50401
G1 X130.113 Y118.864 E1.51225
G1 X129.879 Y119.369 E1.52049
G1 X129.575 Y119.835 E1.52874
G1 X129.207 Y120.253 E1.53699
M204 S625
M205 X6
G0 F5000 X128.854 Y120.104
M204 S500
M205 X5
G1 F1200 X128.435 Y120.43 E1.54485
G1 X127.972 Y120.688 E1.5527
G1 X127.475 Y120.875 E1.56057
G1 X126.956 Y120.984 E1.56842
G1 X126.49 Y121.015 E1.57534
G1 X106.51 Y121.014 E1.87131
G1 X105.981 Y120.974 E1.87917
G1 X105.464 Y120.855 E1.88703
G1 X104.97 Y120.66 E1.8949
G1 X104.512 Y120.393 E1.90275
G1 X104.098 Y120.06 E1.91062
G1 X103.74 Y119.669 E1.91847
G1 X103.444 Y119.228 E1.92634
G1 X103.218 Y118.748 E1.9342
G1 X103.066 Y118.24 E1.94205
G1 X102.985 Y117.489 E1.95324
G1 X102.985 Y97.51 E2.2492
G1 X103.025 Y96.981 E2.25706
G1 X103.144 Y96.464 E2.26492
G1 X103.339 Y95.97 E2.27278
G1 X103.606 Y95.512 E2.28064
G1 X103.939 Y95.098 E2.28851
G1 X104.33 Y94.74 E2.29636
G1 X104.771 Y94.444 E2.30423
G1 X105.251 Y94.218 E2.31209
G1 X105.759 Y94.066 E2.31994
G1 X106.51 Y93.985 E2.33113
G1 X125.99 Y93.986 E2.61969
G1 X126.519 Y94.026 E2.62755
G1 X127.036 Y94.145 E2.63541
G1 X127.53 Y94.34 E2.64328
G1 X127.988 Y94.607 E2.65113
G1 X128.402 Y94.94 E2.659
G1 X128.76 Y95.331 E2.66686
G1 X129.056 Y95.772 E2.67472
G1 X129.282 Y96.252 E2.68258
G1 X129.434 Y96.76 E2.69044
G1 X129.515 Y97.508 E2.70158
G1 X129.524 Y106.948 E2.84142
G1 X129.681 Y112.503 E2.92374
G1 X130.007 Y117.249 E2.99421
G1 X130.003 Y117.779 E3.00206
G1 X129.92 Y118.303 E3.00992
G1 X129.759 Y118.809 E3.01779
G1 X129.524 Y119.285 E3.02565
G1 X129.22 Y119.72 E3.03351
G1 X128.854 Y120.104 E3.04137
M204 S625
M205 X6
G0 F5000 X128.503 Y119.945
M204 S500
M205 X5
G1 F1200 X128.089 Y120.233 E3.04884
G1 X127.636 Y120.451 E3.05629
G1 X127.153 Y120.595 E3.06375
G1 X126.49 Y120.665 E3.07363
G1 X106.51 Y120.664 E3.3696
G1 X106.008 Y120.624 E3.37706
G1 X105.518 Y120.505 E3.38453
G1 X105.054 Y120.31 E3.39198
G1 X104.626 Y120.045 E3.39944
G1 X104.246 Y119.715 E3.4069
G1 X103.922 Y119.329 E3.41436
G1 X103.664 Y118.897 E3.42182
G1 X103.477 Y118.429 E3.42928
G1 X103.367 Y117.938 E3.43674
G1 X103.335 Y117.489 E3.4434
G1 X103.335 Y97.51 E3.73936
G1 X103.375 Y97.008 E3.74682
G1 X103.494 Y96.519 E3.75427
G1 X103.688 Y96.054 E3.76174
G1 X103.954 Y95.626 E3.7692
G1 X104.284 Y95.246 E3.77666
G1 X104.67 Y94.923 E3.78411
G1 X105.102 Y94.664 E3.79157
G1 X105.57 Y94.477 E3.79904
G1 X106.061 Y94.367 E3.80649
G1 X106.51 Y94.335 E3.81316
G1 X125.99 Y94.336 E4.10173
G1 X126.492 Y94.376 E4.10918
G1 X126.982 Y94.495 E4.11665
G1 X127.446 Y94.69 E4.12411
G1 X127.874 Y94.955 E4.13157
G1 X128.254 Y95.285 E4.13902
G1 X128.578 Y95.671 E4.14649
G1 X128.836 Y96.103 E4.15394
G1 X129.023 Y96.571 E4.16141
G1 X129.133 Y97.062 E4.16886
G1 X129.165 Y97.508 E4.17548
G1 X129.174 Y106.959 E4.31549
G1 X129.331 Y112.512 E4.39778
G1 X129.658 Y117.273 E4.46847
G1 X129.652 Y117.776 E4.47592
G1 X129.567 Y118.272 E4.48337
G1 X129.405 Y118.749 E4.49084
G1 X129.169 Y119.194 E4.4983
G1 X128.866 Y119.596 E4.50576
G1 X128.503 Y119.945 E4.51322
M204 S625
M205 X6
G1 F1500 E-1.98678
G0 F5000 X126.31 Y117.31
G0 X125.754 Y117.244
G0 X125.824 Y117.174
M204 S500
M205 X5
;TYPE:WALL-OUTER
G1 F1500 E4.51322
G1 F1200 X126.324 Y117.174 E4.52062
G1 X126.324 Y117.324 E4.52284
G1 X125.824 Y117.324 E4.52602
G1 X125.674 Y117.324 E4.52824
G1 X125.674 Y117.174 E4.52939
G1 X125.674 Y97.826 E4.816
G1 X124.824 Y97.826 E4.82859
G1 X124.824 Y117.174 E5.1152
G1 X124.824 Y117.324 E5.11742
G1 X124.674 Y117.324 E5.11857
G1 X123.824 Y117.324 E5.13116
G1 X123.674 Y117.324 E5.13338
G1 X123.674 Y117.174 E5.13453
G1 X123.674 Y97.826 E5.42114
G1 X122.824 Y97.826 E5.43373
G1 X122.824 Y117.174 E5.72034
G1 X122.824 Y117.324 E5.72256
G1 X122.674 Y117.324 E5.72371
G1 X121.824 Y117.324 E5.7363
G1 X121.674 Y117.324 E5.73852
G1 X121.674 Y117.174 E5.73967
G1 X121.674 Y97.826 E6.02628
G1 X120.824 Y97.826 E6.03887
G1 X120.824 Y117.174 E6.32548
G1 X120.824 Y117.324 E6.3277
G1 X120.674 Y117.324 E6.32885
G1 X119.824 Y117.324 E6.34144
G1 X119.674 Y117.324 E6.34366
G1 X119.674 Y117.174 E6.34481
G1 X119.674 Y97.826 E6.63142
G1 X118.824 Y97.826 E6.64401
G1 X118.824 Y117.173 E6.9306
G1 X118.825 Y117.324 E6.93284
G1 X118.674 Y117.324 E6.9329
G1 X117.824 Y117.324 E6.94549
G1 X117.674 Y117.324 E6.94771
G1 X117.674 Y117.174 E6.94886
G1 X117.674 Y97.826 E7.23547
G1 X116.824 Y97.826 E7.24806
G1 X116.824 Y117.174 E7.53467
G1 X116.824 Y117.324 E7.53689
G1 X116.675 Y117.324 E7.53802
G1 X115.826 Y117.324 E7.5506
G1 X115.676 Y117.324 E7.55282
G1 X115.676 Y117.175 E7.55395
G1 X115.675 Y97.826 E7.84058
G1 X114.826 Y97.826 E7.85315
G1 X114.826 Y117.174 E8.13976
G1 X114.826 Y117.324 E8.14198
G1 X114.676 Y117.324 E8.14313
G1 X113.826 Y117.324 E8.15572
G1 X113.676 Y117.324 E8.15794
G1 X113.676 Y117.175 E8.15908
G1 X113.675 Y97.826 E8.4457
G1 X112.825 Y97.826 E8.45829
G1 X112.825 Y117.173 E8.74488
G1 X112.826 Y117.324 E8.74712
G1 X112.676 Y117.324 E8.74717
G1 X111.826 Y117.324 E8.75976
G1 X111.676 Y117.324 E8.76198
G1 X111.676 Y117.174 E8.76313
G1 X111.676 Y97.826 E9.04974
G1 X110.826 Y97.826 E9.06233
G1 X110.826 Y117.174 E9.34894
G1 X110.826 Y117.324 E9.35116
G1 X110.676 Y117.324 E9.35231
G1 X109.826 Y117.324 E9.3649
G1 X109.676 Y117.324 E9.36712
G1 X109.676 Y117.174 E9.36827
G1 X109.676 Y97.826 E9.65488
G1 X108.826 Y97.826 E9.66747
G1 X108.826 Y117.174 E9.95408
G1 X108.826 Y117.324 E9.9563
G1 X108.676 Y117.324 E9.95745
G1 X107.826 Y117.324 E9.97004
G1 X107.676 Y117.324 E9.97226
G1 X107.676 Y117.174 E9.97341
G1 X107.676 Y97.826 E10.26002
G1 X106.826 Y97.826 E10.27261
G1 X106.826 Y117.324 E10.56144
G1 X106.676 Y117.324 E10.56366
G1 X106.676 Y97.826 E10.68745
G1 X106.676 Y97.676 E10.68913
G1 X106.826 Y97.676 E10.68975
G1 X107.676 Y97.676 E10.69514
G1 X107.826 Y97.676 E10.69683
G1 X107.826 Y97.826 E10.69744
G1 X107.826 Y117.174 E10.8192
G1 X108.676 Y117.174 E10.82352
G1 X108.676 Y97.826 E10.94636
G1 X108.676 Y97.676 E10.94804
G1 X108.826 Y97.676 E10.94865
G1 X109.676 Y97.676 E10.95405
G1 X109.826 Y97.676 E10.95574
G1 X109.826 Y97.826 E10.95635
G1 X109.826 Y117.174 E11.07811
G1 X110.676 Y117.174 E11.08243
G1 X110.676 Y97.826 E11.20526
G1 X110.676 Y97.676 E11.20695
G1 X110.826 Y97.676 E11.20756
G1 X111.676 Y97.676 E11.21296
G1 X111.826 Y97.676 E11.21464
G1 X111.826 Y97.826 E11.21525
G1 X111.826 Y117.174 E11.33701
G1 X112.676 Y117.174 E11.34187
G1 X112.676 Y97.827 E11.46389
G1 X112.675 Y97.676 E11.46613
G1 X112.825 Y97.676
G1 X113.675 Y97.676 E11.47152
G1 X113.825 Y97.676 E11.47321
G1 X113.825 Y97.825 E11.47434
G1 X113.826 Y117.174 E11.59665
G1 X114.676 Y117.174 E11.60097
G1 X114.676 Y97.826 E11.72381
G1 X114.676 Y97.676 E11.72549
G1 X114.826 Y97.676 E11.7261
G1 X115.675 Y97.676 E11.73149
G1 X115.825 Y97.676 E11.73318
G1 X115.825 Y97.825 E11.73431
G1 X115.826 Y117.174 E11.85662
G1 X116.675 Y117.174 E11.86094
G1 X116.675 Y97.826 E11.98295
G1 X116.675 Y97.676 E11.98464
G1 X116.824 Y97.676 E11.98523
G1 X117.674 Y97.676 E11.99063
G1 X117.824 Y97.676 E11.99232
G1 X117.824 Y97.826 E11.99293
G1 X117.824 Y117.174 E12.11469
G1 X118.674 Y117.174 E12.11954
G1 X118.674 Y97.826 E12.24238
G1 X118.674 Y97.676 E12.24407
G1 X118.824 Y97.676 E12.24468
G1 X119.674 Y97.676 E12.25007
G1 X119.824 Y97.676 E12.25176
G1 X119.824 Y97.826 E12.25237
G1 X119.824 Y117.174 E12.37413
G1 X120.674 Y117.174 E12.37846
G1 X120.674 Y97.826 E12.50129
G1 X120.674 Y97.676 E12.50297
G1 X120.824 Y97.676 E12.50359
G1 X121.674 Y97.676 E12.50898
G1 X121.824 Y97.676 E12.51067
G1 X121.824 Y97.826 E12.51128
G1 X121.824 Y117.174 E12.63304
G1 X122.674 Y117.174 E12.63736
G1 X122.674 Y97.826 E12.76019
G1 X122.674 Y97.676 E12.76188
G1 X122.824 Y97.676 E12.76249
G1 X123.674 Y97.676 E12.76789
G1 X123.824 Y97.676 E12.76957
G1 X123.824 Y97.826 E12.77019
G1 X123.824 Y117.174 E12.89195
G1 X124.674 Y117.174 E12.89627
M104 S195
G1 X124.674 Y97.826 E13.0191
G1 X124.674 Y97.676 E13.02079
G1 X124.824 Y97.676 E13.0214
G1 X125.674 Y97.676 E13.0268
G1 X125.824 Y97.676 E13.02848
G1 X125.824 Y97.826 E13.02909
G1 X125.824 Y117.174 E13.15085
M204 S625
M205 X6
G0 F5000 X126.024 Y117.174
G0 X126.324 Y117.324
;TIME_ELAPSED:62.528510
;LAYER:1
M140 S55
M106 S85
M204 S2812
M205 X18
G0 F10000 X126.324 Y117.324 Z0.28
M204 S500
M205 X5
;TYPE:WALL-OUTER
G1 F1200 X125.824 Y117.324 E13.15113
G1 X125.674 Y117.324 E13.15121
G1 X125.674 Y117.174 E13.15125
G1 X125.674 Y97.826 E13.16187
G1 X124.824 Y97.826 E13.16233
G1 X124.824 Y117.174 E13.17295
G1 X124.824 Y117.324 E13.17303
G1 X124.674 Y117.324 E13.17307
G1 X123.824 Y117.324 E13.17354
G1 X123.674 Y117.324 E13.17362
G1 X123.674 Y117.174 E13.17366
G1 X123.674 Y97.826 E13.18428
G1 X122.824 Y97.826 E13.18475
G1 X122.824 Y117.174 E13.19536
G1 X122.824 Y117.324 E13.19544
G1 X122.674 Y117.324 E13.19549
G1 X121.824 Y117.324 E13.19595
G1 X121.674 Y117.324 E13.19603
G1 X121.674 Y117.174 E13.19608
G1 X121.674 Y97.826 E13.20669
G1 X120.824 Y97.826 E13.20716
G1 X120.824 Y117.174 E13.21777
G1 X120.824 Y117.324 E13.21786
G1 X120.674 Y117.324 E13.2179
G1 X119.824 Y117.324 E13.21837
G1 X119.674 Y117.324 E13.21845
G1 X119.674 Y117.174 E13.21849
G1 X119.674 Y97.826 E13.22911
G1 X118.824 Y97.826 E13.22957
G1 X118.824 Y117.173 E13.24019
G1 X118.825 Y117.324 E13.24027
G1 X118.674 Y117.324 E13.24027
G1 X117.824 Y117.324 E13.24074
G1 X117.674 Y117.324 E13.24082
G1 X117.674 Y117.174 E13.24086
G1 X117.674 Y97.826 E13.25148
G1 X116.824 Y97.826 E13.25194
G1 X116.824 Y117.174 E13.26256
G1 X116.824 Y117.324 E13.26264
G1 X116.675 Y117.324 E13.26268
G1 X115.826 Y117.324 E13.26315
G1 X115.676 Y117.324 E13.26323
G1 X115.676 Y117.175 E13.26327
G1 X115.675 Y97.826 E13.27389
G1 X114.826 Y97.826 E13.27435
G1 X114.826 Y117.174 E13.28497
G1 X114.826 Y117.324 E13.28505
G1 X114.676 Y117.324 E13.28509
G1 X113.826 Y117.324 E13.28556
G1 X113.676 Y117.324 E13.28564
G1 X113.676 Y117.175 E13.28568
G1 X113.675 Y97.826 E13.2963
G1 X112.825 Y97.826 E13.29677
G1 X112.825 Y117.173 E13.30738
G1 X112.826 Y117.324 E13.30746
G1 X112.676 Y117.324 E13.30747
G1 X111.826 Y117.324 E13.30793
G1 X111.676 Y117.324 E13.30801
G1 X111.676 Y117.174 E13.30806
G1 X111.676 Y97.826 E13.31867
G1 X110.826 Y97.826 E13.31914
G1 X110.826 Y117.174 E13.32975
G1 X110.826 Y117.324 E13.32984
G1 X110.676 Y117.324 E13.32988
G1 X109.826 Y117.324 E13.33035
G1 X109.676 Y117.324 E13.33043
G1 X109.676 Y117.174 E13.33047
G1 X109.676 Y97.826 E13.34109
G1 X108.826 Y97.826 E13.34155
G1 X108.826 Y117.174 E13.35217
G1 X108.826 Y117.324 E13.35225
G1 X108.676 Y117.324 E13.35229
G1 X107.826 Y117.324 E13.35276
G1 X107.676 Y117.324 E13.35284
G1 X107.676 Y117.174 E13.35288
G1 X107.676 Y97.826 E13.3635
G1 X106.826 Y97.826 E13.36396
G1 X106.826 Y117.324 E13.37466
G1 X106.676 Y117.324 E13.37474
G1 X106.676 Y97.826 E13.37933
G1 X106.676 Y97.676 E13.37939
G1 X106.826 Y97.676 E13.37941
G1 X107.676 Y97.676 E13.37961
G1 X107.826 Y97.676 E13.37968
G1 X107.826 Y97.826 E13.3797
G1 X107.826 Y117.174 E13.38421
G1 X108.676 Y117.174 E13.38437
G1 X108.676 Y97.826 E13.38892
G1 X108.676 Y97.676 E13.38898
G1 X108.826 Y97.676 E13.389
G1 X109.676 Y97.676 E13.3892
G1 X109.826 Y97.676 E13.38926
G1 X109.826 Y97.826 E13.38929
G1 X109.826 Y117.174 E13.3938
G1 X110.676 Y117.174 E13.39396
G1 X110.676 Y97.826 E13.39851
G1 X110.676 Y97.676 E13.39857
G1 X110.826 Y97.676 E13.39859
G1 X111.676 Y97.676 E13.39879
G1 X111.826 Y97.676 E13.39885
G1 X111.826 Y97.826 E13.39888
G1 X111.826 Y117.174 E13.40339
G1 X112.676 Y117.174 E13.40357
G1 X112.676 Y97.827 E13.40809
G1 X112.675 Y97.676 E13.40817
G1 X112.825 Y97.676
G1 X113.675 Y97.676 E13.40837
G1 X113.825 Y97.676 E13.40843
G1 X113.825 Y97.825 E13.40847
G1 X113.826 Y117.174 E13.413
G1 X114.676 Y117.174 E13.41316
G1 X114.676 Y97.826 E13.41771
G1 X114.676 Y97.676 E13.41777
G1 X114.826 Y97.676 E13.4178
G1 X115.675 Y97.676 E13.418
G1 X115.825 Y97.676 E13.41806
G1 X115.825 Y97.825 E13.4181
G1 X115.826 Y117.174 E13.42263
G1 X116.675 Y117.174 E13.42279
G1 X116.675 Y97.826 E13.42731
G1 X116.675 Y97.676 E13.42737
G1 X116.824 Y97.676 E13.42739
G1 X117.674 Y97.676 E13.42759
G1 X117.824 Y97.676 E13.42766
G1 X117.824 Y97.826 E13.42768
G1 X117.824 Y117.174 E13.43219
G1 X118.674 Y117.174 E13.43237
G1 X118.674 Y97.826 E13.43692
G1 X118.674 Y97.676 E13.43698
G1 X118.824 Y97.676 E13.437
G1 X119.674 Y97.676 E13.4372
G1 X119.824 Y97.676 E13.43727
G1 X119.824 Y97.826 E13.43729
G1 X119.824 Y117.174 E13.4418
G1 X120.674 Y117.174 E13.44196
G1 X120.674 Y97.826 E13.44651
G1 X120.674 Y97.676 E13.44657
G1 X120.824 Y97.676 E13.44659
G1 X121.674 Y97.676 E13.44679
G1 X121.824 Y97.676 E13.44685
G1 X121.824 Y97.826 E13.44688
G1 X121.824 Y117.174 E13.45139
G1 X122.674 Y117.174 E13.45155
G1 X122.674 Y97.826 E13.4561
G1 X122.674 Y97.676 E13.45616
G1 X122.824 Y97.676 E13.45618
G1 X123.674 Y97.676 E13.45638
G1 X123.824 Y97.676 E13.45644
G1 X123.824 Y97.826 E13.45647
G1 X123.824 Y117.174 E13.46098
G1 X124.674 Y117.174 E13.46114
G1 X124.674 Y97.826 E13.46569
G1 X124.674 Y97.676 E13.46575
G1 X124.824 Y97.676 E13.46577
G1 X125.674 Y97.676 E13.46597
G1 X125.824 Y97.676 E13.46603
G1 X125.824 Y97.826 E13.46606
G1 X125.824 Y117.174 E13.47057
G1 X126.324 Y117.174 E13.47068
G1 X126.324 Y117.324 E13.47077
M204 S2812
M205 X18
G0 F10000 X126.124 Y117.324
G0 X126.324 Y117.324
;TIME_ELAPSED:105.745493
;LAYER:2
M106 S170
M204 S5000
M205 X30
G0 F15000 X126.324 Y117.324 Z0.29
M204 S500
M205 X5
;TYPE:WALL-OUTER
G1 F1200 X125.824 Y117.324 E13.47104
G1 X125.674 Y117.324 E13.47112
G1 X125.674 Y117.174 E13.47116
G1 X125.674 Y97.826 E13.48178
G1 X124.824 Y97.826 E13.48225
G1 X124.824 Y117.174 E13.49286
G1 X124.824 Y117.324 E13.49294
G1 X124.674 Y117.324 E13.49299
G1 X123.824 Y117.324 E13.49345
G1 X123.674 Y117.324 E13.49353
G1 X123.674 Y117.174 E13.49358
G1 X123.674 Y97.826 E13.50419
G1 X122.824 Y97.826 E13.50466
G1 X122.824 Y117.174 E13.51527
G1 X122.824 Y117.324 E13.51536
G1 X122.674 Y117.324 E13.5154
G1 X121.824 Y117.324 E13.51586
G1 X121.674 Y117.324 E13.51595
G1 X121.674 Y117.174 E13.51599
G1 X121.674 Y97.826 E13.5266
G1 X120.824 Y97.826 E13.52707
G1 X120.824 Y117.174 E13.53769
