;START_OF_HEADER
;HEADER_VERSION:0.1
;FLAVOR:Griffin
;GENERATOR.NAME:Cura_SteamEngine
;GENERATOR.VERSION:2.5.0
;GENERATOR.BUILD_DATE:2017-04-19
;TARGET_MACHINE.NAME:Ultimaker 3
;EXTRUDER_TRAIN.0.INITIAL_TEMPERATURE:250
;EXTRUDER_TRAIN.0.MATERIAL.VOLUME_USED:380
;EXTRUDER_TRAIN.0.MATERIAL.GUID:28fb4162-db74-49e1-9008-d05f1e8bef5c
;EXTRUDER_TRAIN.0.NOZZLE.DIAMETER:0.4
;BUILD_PLATE.INITIAL_TEMPERATURE:55
;PRINT.TIME:1173
;PRINT.SIZE.MIN.X:9
;PRINT.SIZE.MIN.Y:6
;PRINT.SIZE.MIN.Z:0.27
;PRINT.SIZE.MAX.X:133.499
;PRINT.SIZE.MAX.Y:124.499
;PRINT.SIZE.MAX.Z:2
;END_OF_HEADER
;Generated with Cura_SteamEngine 2.5.0

T0
G92 E0

M109 S250
G0 F15000 X9 Y6 Z2
G280
G1 F1500 E-8
;LAYER_COUNT:24
;LAYER:0
M107
M204 S625
M205 X6
G0 F4285.7 X131.628 Y122.262 Z0.27
M204 S500
M205 X5
;TYPE:SKIRT
G1 F1500 E0
G1 F1200 X131.091 Y122.783 E0.01267
G1 X130.501 Y123.242 E0.02532
G1 X129.865 Y123.637 E0.038
G1 X129.191 Y123.961 E0.05066
G1 X128.486 Y124.211 E0.06332
G1 X127.758 Y124.385 E0.07599
G1 X127.016 Y124.48 E0.08866
G1 X126.499 Y124.499 E0.09742
G1 X125.499 Y124.499 E0.11434
G1 X125.296 Y124.488 E0.11779
G1 X124.999 Y124.499 E0.12282
G1 X123.499 Y124.499 E0.14821
G1 X123.296 Y124.488 E0.15165
G1 X122.999 Y124.499 E0.15669
G1 X121.499 Y124.499 E0.18208
G1 X121.296 Y124.488 E0.18552
G1 X120.999 Y124.499 E0.19055
G1 X119.499 Y124.499 E0.21595
G1 X119.296 Y124.488 E0.21939
G1 X119 Y124.499 E0.2244
G1 X117.499 Y124.499 E0.24981
G1 X117.296 Y124.488 E0.25326
G1 X116.999 Y124.499 E0.25829
G1 X115.501 Y124.499 E0.28365
G1 X115.298 Y124.488 E0.28709
G1 X115.001 Y124.499 E0.29212
G1 X113.501 Y124.499 E0.31752
G1 X113.298 Y124.488 E0.32096
G1 X113.001 Y124.499 E0.32599
G1 X111.501 Y124.499 E0.35138
G1 X111.298 Y124.488 E0.35482
G1 X111.001 Y124.499 E0.35986
G1 X109.501 Y124.499 E0.38525
G1 X109.298 Y124.488 E0.38869
G1 X109.001 Y124.499 E0.39372
G1 X107.501 Y124.499 E0.41912
G1 X107.298 Y124.488 E0.42256
G1 X107.001 Y124.499 E0.42759
G1 X106.501 Y124.499 E0.43606
G1 X105.754 Y124.459 E0.44872
G1 X105.016 Y124.34 E0.46138
G1 X104.294 Y124.142 E0.47405
G1 X103.598 Y123.869 E0.48671
G1 X102.935 Y123.522 E0.49938
G1 X102.312 Y123.107 E0.51205
G1 X101.738 Y122.628 E0.52471
G1 X101.217 Y122.091 E0.53737
G1 X100.758 Y121.501 E0.55003
G1 X100.363 Y120.865 E0.5627
G1 X100.039 Y120.191 E0.57536
G1 X99.789 Y119.486 E0.58803
G1 X99.615 Y118.758 E0.6007
G1 X99.52 Y118.016 E0.61336
G1 X99.501 Y117.499 E0.62212
G1 X99.501 Y97.501 E0.96068
G1 X99.541 Y96.754 E0.97334
G1 X99.66 Y96.016 E0.986
G1 X99.858 Y95.294 E0.99867
G1 X100.131 Y94.598 E1.01133
G1 X100.478 Y93.935 E1.024
G1 X100.893 Y93.312 E1.03667
G1 X101.372 Y92.738 E1.04933
G1 X101.909 Y92.217 E1.06199
G1 X102.499 Y91.758 E1.07465
G1 X103.135 Y91.363 E1.08732
G1 X103.809 Y91.039 E1.09998
G1 X104.514 Y90.789 E1.11265
G1 X105.242 Y90.615 E1.12532
G1 X105.984 Y90.52 E1.13798
G1 X106.501 Y90.501 E1.14674
G1 X108.001 Y90.501 E1.17214
G1 X108.204 Y90.512 E1.17558
G1 X108.501 Y90.501 E1.18061
G1 X110.001 Y90.501 E1.206
G1 X110.204 Y90.512 E1.20944
G1 X110.501 Y90.501 E1.21448
G1 X112.001 Y90.501 E1.23987
G1 X112.204 Y90.512 E1.24331
G1 X112.5 Y90.501 E1.24833
G1 X114 Y90.501 E1.27372
G1 X114.204 Y90.512 E1.27718
G1 X114.501 Y90.501 E1.28221
G1 X116 Y90.501 E1.30759
G1 X116.203 Y90.512 E1.31103
G1 X116.5 Y90.501 E1.31606
G1 X117.999 Y90.501 E1.34144
G1 X118.202 Y90.512 E1.34488
G1 X118.499 Y90.501 E1.34991
G1 X119.999 Y90.501 E1.37531
G1 X120.202 Y90.512 E1.37875
G1 X120.499 Y90.501 E1.38378
G1 X121.999 Y90.501 E1.40917
G1 X122.202 Y90.512 E1.41262
G1 X122.499 Y90.501 E1.41765
G1 X123.999 Y90.501 E1.44304
G1 X124.202 Y90.512 E1.44648
G1 X124.499 Y90.501 E1.45151
G1 X125.999 Y90.501 E1.47691
G1 X126.746 Y90.541 E1.48957
G1 X127.484 Y90.66 E1.50223
G1 X128.206 Y90.858 E1.5149
G1 X128.902 Y91.131 E1.52756
G1 X129.565 Y91.478 E1.54023
G1 X130.188 Y91.893 E1.5529
G1 X130.762 Y92.372 E1.56556
G1 X131.283 Y92.909 E1.57822
G1 X131.742 Y93.499 E1.59088
G1 X132.137 Y94.135 E1.60355
G1 X132.461 Y94.809 E1.61621
G1 X132.711 Y95.514 E1.62888
G1 X132.885 Y96.242 E1.64155
G1 X132.98 Y96.984 E1.65421
G1 X132.999 Y97.501 E1.66297
G1 X132.999 Y114.414 E1.9493
G1 X133.211 Y115.012 E1.96004
G1 X133.385 Y115.74 E1.97271
G1 X133.48 Y116.482 E1.98538
G1 X133.499 Y116.999 E1.99414
G1 X133.499 Y117.499 E2.0026
G1 X133.459 Y118.246 E2.01527
G1 X133.34 Y118.984 E2.02792
G1 X133.142 Y119.706 E2.0406
G1 X132.869 Y120.402 E2.05325
G1 X132.522 Y121.065 E2.06592
G1 X132.107 Y121.688 E2.07859
G1 X131.628 Y122.262 E2.09125
M204 S625
M205 X6
G0 F4285.7 X131.234 Y122.097
M204 S500
M205 X5
G1 F1200 X130.7 Y122.59 E2.10356
G1 X130.115 Y123.02 E2.11585
G1 X129.486 Y123.384 E2.12815
G1 X128.821 Y123.677 E2.14045
G1 X128.128 Y123.895 E2.15275
G1 X127.416 Y124.035 E2.16504
G1 X126.499 Y124.099 E2.1806
G1 X125.499 Y124.099 E2.19753
G1 X125.22 Y124.084 E2.20226
G1 X124.999 Y124.099 E2.20601
G1 X123.499 Y124.099 E2.2314
G1 X123.22 Y124.084 E2.23613
G1 X122.999 Y124.099 E2.23988
G1 X121.499 Y124.099 E2.26528
G1 X121.22 Y124.084 E2.27001
G1 X120.999 Y124.099 E2.27376
G1 X119.499 Y124.099 E2.29915
G1 X119.22 Y124.084 E2.30388
G1 X119 Y124.099 E2.30761
G1 X117.499 Y124.099 E2.33303
G1 X117.22 Y124.084 E2.33776
G1 X116.999 Y124.099 E2.34151
G1 X115.501 Y124.099 E2.36687
G1 X115.222 Y124.084 E2.3716
G1 X115.001 Y124.099 E2.37535
G1 X113.501 Y124.099 E2.40074
G1 X113.222 Y124.084 E2.40547
G1 X113.001 Y124.099 E2.40922
G1 X111.501 Y124.099 E2.43461
G1 X111.222 Y124.084 E2.43934
G1 X111.001 Y124.099 E2.44309
G1 X109.501 Y124.099 E2.46849
G1 X109.222 Y124.084 E2.47322
G1 X109.001 Y124.099 E2.47697
G1 X107.501 Y124.099 E2.50236
G1 X107.222 Y124.084 E2.50709
G1 X107.001 Y124.099 E2.51084
G1 X106.501 Y124.099 E2.51931
G1 X105.776 Y124.059 E2.5316
G1 X105.059 Y123.94 E2.54391
G1 X104.36 Y123.742 E2.5562
G1 X103.687 Y123.469 E2.5685
G1 X103.048 Y123.124 E2.58079
G1 X102.451 Y122.71 E2.59309
G1 X101.903 Y122.234 E2.60538
G1 X101.41 Y121.7 E2.61769
G1 X100.98 Y121.115 E2.62998
G1 X100.616 Y120.486 E2.64228
G1 X100.323 Y119.821 E2.65458
G1 X100.105 Y119.128 E2.66688
G1 X99.965 Y118.416 E2.67917
G1 X99.901 Y117.499 E2.69473
G1 X99.901 Y97.501 E3.03328
G1 X99.941 Y96.776 E3.04558
G1 X100.06 Y96.059 E3.05788
G1 X100.258 Y95.36 E3.07018
G1 X100.531 Y94.687 E3.08248
G1 X100.876 Y94.048 E3.09477
G1 X101.29 Y93.451 E3.10707
G1 X101.766 Y92.903 E3.11936
G1 X102.3 Y92.41 E3.13166
G1 X102.885 Y91.98 E3.14395
G1 X103.514 Y91.616 E3.15626
G1 X104.179 Y91.323 E3.16856
G1 X104.872 Y91.105 E3.18086
G1 X105.584 Y90.965 E3.19314
G1 X106.501 Y90.901 E3.2087
G1 X108.001 Y90.901 E3.2341
G1 X108.28 Y90.916 E3.23883
G1 X108.501 Y90.901 E3.24258
G1 X110.001 Y90.901 E3.26797
G1 X110.28 Y90.916 E3.2727
G1 X110.501 Y90.901 E3.27645
G1 X112.001 Y90.901 E3.30185
G1 X112.28 Y90.916 E3.30658
G1 X112.5 Y90.901 E3.31031
G1 X114 Y90.901 E3.33571
G1 X114.28 Y90.916 E3.34045
G1 X114.501 Y90.901 E3.3442
G1 X116 Y90.901 E3.36958
G1 X116.279 Y90.916 E3.37431
G1 X116.5 Y90.901 E3.37806
G1 X117.999 Y90.901 E3.40344
G1 X118.278 Y90.916 E3.40817
G1 X118.499 Y90.901 E3.41192
G1 X119.999 Y90.901 E3.43731
G1 X120.278 Y90.916 E3.44204
G1 X120.499 Y90.901 E3.44579
G1 X121.999 Y90.901 E3.47119
G1 X122.278 Y90.916 E3.47592
G1 X122.499 Y90.901 E3.47967
G1 X123.999 Y90.901 E3.50506
G1 X124.278 Y90.916 E3.50979
G1 X124.499 Y90.901 E3.51354
G1 X125.999 Y90.901 E3.53894
G1 X126.724 Y90.941 E3.55123
G1 X127.441 Y91.06 E3.56353
G1 X128.14 Y91.258 E3.57583
G1 X128.813 Y91.531 E3.58813
G1 X129.452 Y91.876 E3.60042
G1 X130.049 Y92.29 E3.61272
G1 X130.597 Y92.766 E3.62501
G1 X131.09 Y93.3 E3.63731
G1 X131.52 Y93.885 E3.6496
G1 X131.884 Y94.514 E3.66191
G1 X132.177 Y95.179 E3.67421
G1 X132.395 Y95.872 E3.68651
G1 X132.535 Y96.584 E3.69879
G1 X132.599 Y97.501 E3.71436
G1 X132.599 Y114.5 E4.00214
G1 X132.677 Y114.677 E4.00541
G1 X132.895 Y115.37 E4.01771
G1 X133.035 Y116.082 E4.03
G1 X133.099 Y116.999 E4.04556
G1 X133.099 Y117.499 E4.05402
G1 X133.059 Y118.224 E4.06632
G1 X132.94 Y118.941 E4.07862
G1 X132.742 Y119.64 E4.09092
G1 X132.469 Y120.313 E4.10322
G1 X132.124 Y120.952 E4.11551
G1 X131.71 Y121.549 E4.12781
G1 X131.234 Y122.097 E4.1401
M204 S625
M205 X6
G0 F4285.7 X130.84 Y121.926
M204 S500
M205 X5
G1 F1200 X130.31 Y122.39 E4.15202
G1 X129.731 Y122.79 E4.16394
G1 X129.11 Y123.122 E4.17586
G1 X128.456 Y123.382 E4.18777
G1 X127.776 Y123.566 E4.1997
G1 X127.08 Y123.672 E4.21162
G1 X126.499 Y123.699 E4.22147
G1 X125.499 Y123.699 E4.23839
G1 X125.274 Y123.686 E4.24221
G1 X124.999 Y123.699 E4.24687
G1 X123.499 Y123.699 E4.27227
G1 X123.274 Y123.686 E4.27608
G1 X122.999 Y123.699 E4.28074
G1 X121.499 Y123.699 E4.30614
G1 X121.274 Y123.686 E4.30995
G1 X120.999 Y123.699 E4.31461
G1 X119.499 Y123.699 E4.34001
G1 X119.275 Y123.686 E4.3438
G1 X119 Y123.699 E4.34847
G1 X117.499 Y123.699 E4.37388
G1 X117.274 Y123.686 E4.37769
G1 X116.999 Y123.699 E4.38235
G1 X115.501 Y123.699 E4.40771
G1 X115.276 Y123.686 E4.41153
G1 X115.001 Y123.699 E4.41619
G1 X113.501 Y123.699 E4.44158
G1 X113.276 Y123.686 E4.4454
G1 X113.001 Y123.699 E4.45006
G1 X111.501 Y123.699 E4.47545
G1 X111.276 Y123.686 E4.47927
G1 X111.001 Y123.699 E4.48393
G1 X109.501 Y123.699 E4.50933
G1 X109.276 Y123.686 E4.51314
G1 X109.001 Y123.699 E4.5178
G1 X107.501 Y123.699 E4.5432
G1 X107.276 Y123.686 E4.54701
G1 X107.001 Y123.699 E4.55167
G1 X106.501 Y123.699 E4.56014
G1 X105.798 Y123.659 E4.57206
G1 X105.104 Y123.54 E4.58398
G1 X104.429 Y123.342 E4.59589
G1 X103.78 Y123.07 E4.6078
G1 X103.166 Y122.725 E4.61972
G1 X102.595 Y122.314 E4.63163
G1 X102.074 Y121.84 E4.64356
G1 X101.61 Y121.31 E4.65548
G1 X101.21 Y120.731 E4.6674
G1 X100.878 Y120.11 E4.67932
G1 X100.618 Y119.456 E4.69123
G1 X100.434 Y118.776 E4.70316
G1 X100.328 Y118.08 E4.71508
G1 X100.301 Y117.499 E4.72493
G1 X100.301 Y97.501 E5.06348
G1 X100.341 Y96.798 E5.0754
G1 X100.46 Y96.104 E5.08732
G1 X100.658 Y95.429 E5.09923
G1 X100.93 Y94.78 E5.11114
G1 X101.275 Y94.166 E5.12307
G1 X101.686 Y93.595 E5.13498
G1 X102.16 Y93.074 E5.1469
G1 X102.69 Y92.61 E5.15883
G1 X103.269 Y92.21 E5.17074
G1 X103.89 Y91.878 E5.18266
G1 X104.544 Y91.618 E5.19458
G1 X105.224 Y91.434 E5.2065
G1 X105.92 Y91.328 E5.21842
G1 X106.501 Y91.301 E5.22827
G1 X108.001 Y91.301 E5.25366
G1 X108.226 Y91.314 E5.25748
G1 X108.501 Y91.301 E5.26214
G1 X110.001 Y91.301 E5.28753
G1 X110.226 Y91.314 E5.29135
G1 X110.501 Y91.301 E5.29601
G1 X112.001 Y91.301 E5.3214
G1 X112.225 Y91.314 E5.3252
G1 X112.5 Y91.301 E5.32986
G1 X114 Y91.301 E5.35526
G1 X114.225 Y91.314 E5.35907
G1 X114.501 Y91.301 E5.36375
G1 X116 Y91.301 E5.38913
G1 X116.225 Y91.314 E5.39294
G1 X116.5 Y91.301 E5.39761
G1 X117.999 Y91.301 E5.42298
G1 X118.224 Y91.314 E5.4268
G1 X118.499 Y91.301 E5.43146
G1 X119.999 Y91.301 E5.45685
G1 X120.224 Y91.314 E5.46067
G1 X120.499 Y91.301 E5.46533
G1 X121.999 Y91.301 E5.49072
G1 X122.224 Y91.314 E5.49454
G1 X122.499 Y91.301 E5.4992
G1 X123.999 Y91.301 E5.52459
G1 X124.224 Y91.314 E5.52841
G1 X124.499 Y91.301 E5.53307
G1 X125.999 Y91.301 E5.55846
G1 X126.702 Y91.341 E5.57039
G1 X127.396 Y91.46 E5.58231
G1 X128.071 Y91.658 E5.59422
G1 X128.72 Y91.93 E5.60613
G1 X129.334 Y92.275 E5.61805
G1 X129.905 Y92.686 E5.62996
G1 X130.426 Y93.16 E5.64189
G1 X130.89 Y93.69 E5.65381
G1 X131.29 Y94.269 E5.66573
G1 X131.622 Y94.89 E5.67765
G1 X131.882 Y95.544 E5.68956
G1 X132.066 Y96.224 E5.70149
G1 X132.172 Y96.92 E5.71341
G1 X132.199 Y97.501 E5.72325
G1 X132.199 Y114.582 E6.01243
G1 X132.382 Y115.042 E6.02081
G1 X132.566 Y115.722 E6.03273
G1 X132.672 Y116.418 E6.04465
G1 X132.699 Y116.999 E6.0545
G1 X132.699 Y117.499 E6.06296
G1 X132.659 Y118.202 E6.07488
G1 X132.54 Y118.896 E6.0868
G1 X132.342 Y119.571 E6.09871
G1 X132.07 Y120.22 E6.11063
G1 X131.725 Y120.834 E6.12255
G1 X131.314 Y121.405 E6.13446
G1 X130.84 Y121.926 E6.14638
M204 S625
M205 X6
G0 F4285.7 X130.446 Y121.748
M204 S500
M205 X5
G1 F1200 X129.921 Y122.182 E6.15792
G1 X129.349 Y122.551 E6.16944
G1 X128.737 Y122.85 E6.18097
G1 X128.095 Y123.075 E6.19249
G1 X127.43 Y123.224 E6.20403
G1 X126.499 Y123.299 E6.21984
G1 X125.499 Y123.299 E6.23677
G1 X125.21 Y123.282 E6.24167
G1 X124.999 Y123.299 E6.24525
G1 X123.499 Y123.299 E6.27065
G1 X123.21 Y123.282 E6.27555
G1 X122.999 Y123.299 E6.27913
G1 X121.499 Y123.299 E6.30453
G1 X121.21 Y123.282 E6.30943
G1 X120.999 Y123.299 E6.31301
G1 X119.499 Y123.299 E6.3384
G1 X119.211 Y123.282 E6.34329
G1 X119 Y123.299 E6.34687
G1 X117.499 Y123.299 E6.37228
G1 X117.21 Y123.282 E6.37719
G1 X116.999 Y123.299 E6.38077
G1 X115.501 Y123.299 E6.40613
G1 X115.212 Y123.282 E6.41103
G1 X115.001 Y123.299 E6.41461
G1 X113.501 Y123.299 E6.44001
G1 X113.212 Y123.282 E6.44491
G1 X113.001 Y123.299 E6.44849
G1 X111.501 Y123.299 E6.47389
G1 X111.212 Y123.282 E6.47879
G1 X111.001 Y123.299 E6.48237
G1 X109.501 Y123.299 E6.50777
G1 X109.212 Y123.282 E6.51267
G1 X109.001 Y123.299 E6.51625
G1 X107.501 Y123.299 E6.54165
G1 X107.212 Y123.282 E6.54655
G1 X107.001 Y123.299 E6.55013
G1 X106.501 Y123.299 E6.55859
G1 X105.821 Y123.259 E6.57013
G1 X105.151 Y123.14 E6.58165
G1 X104.499 Y122.943 E6.59318
G1 X103.875 Y122.671 E6.6047
G1 X103.287 Y122.327 E6.61623
G1 X102.743 Y121.917 E6.62777
G1 X102.252 Y121.446 E6.63929
G1 X101.818 Y120.921 E6.65082
G1 X101.449 Y120.349 E6.66234
G1 X101.15 Y119.737 E6.67387
G1 X100.925 Y119.095 E6.68539
G1 X100.776 Y118.43 E6.69693
G1 X100.701 Y117.499 E6.71274
G1 X100.701 Y97.501 E7.0513
G1 X100.741 Y96.821 E7.06283
G1 X100.86 Y96.151 E7.07435
G1 X101.057 Y95.499 E7.08588
G1 X101.329 Y94.875 E7.0974
G1 X101.673 Y94.287 E7.10894
G1 X102.083 Y93.743 E7.12047
G1 X102.554 Y93.252 E7.13199
G1 X103.079 Y92.818 E7.14352
G1 X103.651 Y92.449 E7.15504
G1 X104.263 Y92.15 E7.16657
G1 X104.905 Y91.925 E7.17809
G1 X105.57 Y91.776 E7.18963
G1 X106.501 Y91.701 E7.20544
G1 X108.001 Y91.701 E7.23083
G1 X108.29 Y91.718 E7.23574
G1 X108.501 Y91.701 E7.23932
G1 X110.001 Y91.701 E7.26471
G1 X110.29 Y91.718 E7.26961
G1 X110.501 Y91.701 E7.2732
G1 X112.001 Y91.701 E7.29859
G1 X112.289 Y91.718 E7.30348
G1 X112.5 Y91.701 E7.30706
G1 X114 Y91.701 E7.33245
G1 X114.29 Y91.718 E7.33737
G1 X114.501 Y91.701 E7.34096
G1 X116 Y91.701 E7.36633
G1 X116.289 Y91.718 E7.37123
G1 X116.5 Y91.701 E7.37482
G1 X117.999 Y91.701 E7.4002
G1 X118.288 Y91.718 E7.4051
G1 X118.499 Y91.701 E7.40868
G1 X119.999 Y91.701 E7.43407
G1 X120.288 Y91.718 E7.43898
G1 X120.499 Y91.701 E7.44256
G1 X121.999 Y91.701 E7.46795
G1 X122.288 Y91.718 E7.47285
G1 X122.499 Y91.701 E7.47644
G1 X123.999 Y91.701 E7.50183
G1 X124.288 Y91.718 E7.50673
G1 X124.499 Y91.701 E7.51032
G1 X125.999 Y91.701 E7.53571
G1 X126.679 Y91.741 E7.54724
G1 X127.349 Y91.86 E7.55876
G1 X128.001 Y92.057 E7.57029
G1 X128.625 Y92.329 E7.58182
G1 X129.213 Y92.673 E7.59335
G1 X129.757 Y93.083 E7.60488
G1 X130.248 Y93.554 E7.6164
G1 X130.682 Y94.079 E7.62793
G1 X131.051 Y94.651 E7.63946
G1 X131.35 Y95.263 E7.65099
G1 X131.575 Y95.905 E7.66251
G1 X131.724 Y96.57 E7.67404
G1 X131.799 Y97.501 E7.68986
G1 X131.799 Y114.657 E7.9803
G1 X131.85 Y114.761 E7.98226
G1 X132.075 Y115.403 E7.99378
G1 X132.224 Y116.068 E8.00531
G1 X132.299 Y116.999 E8.02113
G1 X132.299 Y117.499 E8.02959
G1 X132.259 Y118.179 E8.04112
G1 X132.14 Y118.849 E8.05264
G1 X131.943 Y119.501 E8.06417
G1 X131.671 Y120.125 E8.0757
G1 X131.327 Y120.713 E8.08723
G1 X130.917 Y121.257 E8.09876
G1 X130.446 Y121.748 E8.11028
M204 S625
M205 X6
G0 F4285.7 X130.054 Y121.564
M204 S500
M205 X5
G1 F1200 X129.534 Y121.965 E8.1214
G1 X128.97 Y122.301 E8.13251
G1 X128.368 Y122.565 E8.14364
G1 X127.739 Y122.755 E8.15477
G1 X127.092 Y122.866 E8.16588
G1 X126.499 Y122.899 E8.17593
G1 X125.499 Y122.899 E8.19286
G1 X125.26 Y122.884 E8.19692
G1 X124.999 Y122.899 E8.20134
G1 X123.499 Y122.899 E8.22674
G1 X123.26 Y122.884 E8.23079
G1 X122.999 Y122.899 E8.23522
G1 X121.499 Y122.899 E8.26061
G1 X121.26 Y122.884 E8.26467
G1 X120.999 Y122.899 E8.26909
G1 X119.499 Y122.899 E8.29449
G1 X119.261 Y122.884 E8.29852
G1 X119 Y122.899 E8.30295
G1 X117.499 Y122.899 E8.32836
G1 X117.26 Y122.884 E8.33241
G1 X116.999 Y122.899 E8.33684
G1 X115.501 Y122.899 E8.3622
G1 X115.262 Y122.884 E8.36625
G1 X115.001 Y122.899 E8.37068
G1 X113.501 Y122.899 E8.39607
