;START_OF_HEADER
;HEADER_VERSION:0.1
;FLAVOR:Griffin
;GENERATOR.NAME:Cura_SteamEngine
;GENERATOR.VERSION:2.5.0
;GENERATOR.BUILD_DATE:2017-04-19
;TARGET_MACHINE.NAME:Ultimaker 3
;EXTRUDER_TRAIN.0.INITIAL_TEMPERATURE:200
;EXTRUDER_TRAIN.0.MATERIAL.VOLUME_USED:363
;EXTRUDER_TRAIN.0.MATERIAL.GUID:506c9f0d-e3aa-4bd4-b2d2-23e2425b1aa9
;EXTRUDER_TRAIN.0.NOZZLE.DIAMETER:0.4
;BUILD_PLATE.INITIAL_TEMPERATURE:55
;PRINT.TIME:1183
;PRINT.SIZE.MIN.X:9
;PRINT.SIZE.MIN.Y:6
;PRINT.SIZE.MIN.Z:0.27
;PRINT.SIZE.MAX.X:133.324
;PRINT.SIZE.MAX.Y:124.324
;PRINT.SIZE.MAX.Z:2
;END_OF_HEADER
;Generated with Cura_SteamEngine 2.5.0

T0
G92 E0

M109 S200
G0 F15000 X9 Y6 Z2
G280
G1 F1500 E-6.5
;LAYER_COUNT:24
;LAYER:0
M107
M204 S625
M205 X6
G0 F5000 X131.456 Y122.191 Z0.27
M204 S500
M205 X5
;TYPE:SKIRT
G1 F1500 E0
G1 F1200 X130.92 Y122.699 E0.01094
G1 X130.332 Y123.146 E0.02188
G1 X129.699 Y123.527 E0.03283
G1 X129.029 Y123.838 E0.04377
G1 X128.329 Y124.074 E0.05471
G1 X127.608 Y124.233 E0.06565
G1 X126.873 Y124.314 E0.0766
G1 X126.499 Y124.324 E0.08214
G1 X125.499 Y124.324 E0.09696
G1 X125.334 Y124.315 E0.0994
G1 X124.999 Y124.324 E0.10437
G1 X123.499 Y124.324 E0.12659
G1 X123.334 Y124.315 E0.12904
G1 X122.999 Y124.324 E0.134
G1 X121.499 Y124.324 E0.15622
G1 X121.334 Y124.315 E0.15867
G1 X120.999 Y124.324 E0.16363
G1 X119.499 Y124.324 E0.18585
G1 X119.334 Y124.315 E0.1883
G1 X119 Y124.324 E0.19325
G1 X117.499 Y124.324 E0.21548
G1 X117.334 Y124.315 E0.21793
G1 X116.999 Y124.324 E0.2229
G1 X115.501 Y124.324 E0.24509
G1 X115.336 Y124.315 E0.24753
G1 X115.001 Y124.324 E0.2525
G1 X113.501 Y124.324 E0.27472
G1 X113.336 Y124.315 E0.27717
G1 X113.001 Y124.324 E0.28213
G1 X111.501 Y124.324 E0.30435
G1 X111.336 Y124.315 E0.3068
G1 X111.001 Y124.324 E0.31176
G1 X109.501 Y124.324 E0.33398
G1 X109.336 Y124.315 E0.33643
G1 X109.001 Y124.324 E0.34139
G1 X107.501 Y124.324 E0.36361
G1 X107.336 Y124.315 E0.36606
G1 X107.001 Y124.324 E0.37103
G1 X106.501 Y124.324 E0.37843
G1 X105.763 Y124.284 E0.38938
G1 X105.035 Y124.165 E0.40031
G1 X104.323 Y123.967 E0.41126
G1 X103.637 Y123.694 E0.42219
G1 X102.984 Y123.348 E0.43314
G1 X102.372 Y122.934 E0.44409
G1 X101.809 Y122.456 E0.45503
G1 X101.301 Y121.92 E0.46597
G1 X100.854 Y121.332 E0.47691
G1 X100.473 Y120.699 E0.48785
G1 X100.162 Y120.029 E0.49879
G1 X99.926 Y119.329 E0.50974
G1 X99.767 Y118.608 E0.52067
G1 X99.686 Y117.873 E0.53163
G1 X99.676 Y117.499 E0.53717
G1 X99.676 Y97.501 E0.83341
G1 X99.716 Y96.763 E0.84435
G1 X99.835 Y96.035 E0.85528
G1 X100.033 Y95.323 E0.86623
G1 X100.306 Y94.637 E0.87717
G1 X100.652 Y93.984 E0.88811
G1 X101.066 Y93.372 E0.89906
G1 X101.544 Y92.809 E0.91
G1 X102.08 Y92.301 E0.92094
G1 X102.668 Y91.854 E0.93188
G1 X103.301 Y91.473 E0.94282
G1 X103.971 Y91.162 E0.95377
G1 X104.671 Y90.926 E0.96471
G1 X105.392 Y90.767 E0.97564
G1 X106.127 Y90.686 E0.9866
G1 X106.501 Y90.676 E0.99214
G1 X108.001 Y90.676 E1.01436
G1 X108.166 Y90.685 E1.01681
G1 X108.501 Y90.676 E1.02177
G1 X110.001 Y90.676 E1.04399
G1 X110.166 Y90.685 E1.04644
G1 X110.501 Y90.676 E1.0514
G1 X112.001 Y90.676 E1.07362
G1 X112.166 Y90.685 E1.07607
G1 X112.5 Y90.676 E1.08102
G1 X114 Y90.676 E1.10324
G1 X114.166 Y90.685 E1.1057
G1 X114.501 Y90.676 E1.11067
G1 X116 Y90.676 E1.13287
G1 X116.165 Y90.685 E1.13532
G1 X116.5 Y90.676 E1.14029
G1 X117.999 Y90.676 E1.16249
G1 X118.164 Y90.685 E1.16494
G1 X118.499 Y90.676 E1.1699
G1 X119.999 Y90.676 E1.19212
G1 X120.164 Y90.685 E1.19457
G1 X120.499 Y90.676 E1.19954
G1 X121.999 Y90.676 E1.22176
G1 X122.164 Y90.685 E1.2242
G1 X122.499 Y90.676 E1.22917
G1 X123.999 Y90.676 E1.25139
G1 X124.164 Y90.685 E1.25384
G1 X124.499 Y90.676 E1.2588
G1 X125.999 Y90.676 E1.28102
G1 X126.737 Y90.716 E1.29197
G1 X127.465 Y90.835 E1.3029
G1 X128.177 Y91.033 E1.31384
G1 X128.863 Y91.306 E1.32478
G1 X129.516 Y91.652 E1.33573
G1 X130.128 Y92.066 E1.34667
G1 X130.691 Y92.544 E1.35761
G1 X131.199 Y93.08 E1.36855
G1 X131.646 Y93.668 E1.37949
G1 X132.027 Y94.301 E1.39044
G1 X132.338 Y94.971 E1.40138
G1 X132.574 Y95.671 E1.41232
G1 X132.733 Y96.392 E1.42326
G1 X132.814 Y97.127 E1.43421
G1 X132.824 Y97.501 E1.43975
G1 X132.824 Y114.439 E1.69066
G1 X132.838 Y114.469 E1.69115
G1 X133.074 Y115.169 E1.7021
G1 X133.233 Y115.89 E1.71303
G1 X133.314 Y116.625 E1.72399
G1 X133.324 Y116.999 E1.72953
G1 X133.324 Y117.499 E1.73694
G1 X133.284 Y118.237 E1.74788
G1 X133.165 Y118.965 E1.75881
G1 X132.967 Y119.677 E1.76976
G1 X132.694 Y120.363 E1.7807
G1 X132.348 Y121.016 E1.79164
G1 X131.934 Y121.628 E1.80259
G1 X131.456 Y122.191 E1.81353
M204 S625
M205 X6
G0 F5000 X131.11 Y122.044
M204 S500
M205 X5
G1 F1200 X130.578 Y122.528 E1.82418
G1 X129.995 Y122.949 E1.83483
G1 X129.368 Y123.303 E1.8455
G1 X128.707 Y123.586 E1.85615
G1 X128.018 Y123.793 E1.86681
G1 X127.31 Y123.923 E1.87747
G1 X126.499 Y123.974 E1.88951
G1 X125.499 Y123.974 E1.90432
G1 X125.234 Y123.959 E1.90825
G1 X124.999 Y123.974 E1.91174
G1 X123.499 Y123.974 E1.93396
G1 X123.234 Y123.959 E1.93789
G1 X122.999 Y123.974 E1.94138
G1 X121.499 Y123.974 E1.9636
G1 X121.234 Y123.959 E1.96753
G1 X120.999 Y123.974 E1.97102
G1 X119.499 Y123.974 E1.99324
G1 X119.235 Y123.959 E1.99716
G1 X119 Y123.974 E2.00065
G1 X117.499 Y123.974 E2.02288
G1 X117.234 Y123.959 E2.02681
G1 X116.999 Y123.974 E2.0303
G1 X115.501 Y123.974 E2.05249
G1 X115.236 Y123.959 E2.05642
G1 X115.001 Y123.974 E2.05991
G1 X113.501 Y123.974 E2.08213
G1 X113.236 Y123.959 E2.08606
G1 X113.001 Y123.974 E2.08955
G1 X111.501 Y123.974 E2.11177
G1 X111.236 Y123.959 E2.1157
G1 X111.001 Y123.974 E2.11919
G1 X109.501 Y123.974 E2.14141
G1 X109.236 Y123.959 E2.14534
G1 X109.001 Y123.974 E2.14883
G1 X107.501 Y123.974 E2.17105
G1 X107.236 Y123.959 E2.17498
G1 X107.001 Y123.974 E2.17847
G1 X106.501 Y123.974 E2.18588
G1 X105.783 Y123.934 E2.19653
G1 X105.073 Y123.815 E2.2072
G1 X104.381 Y123.617 E2.21786
G1 X103.716 Y123.344 E2.22851
G1 X103.084 Y122.999 E2.23917
G1 X102.495 Y122.586 E2.24983
G1 X101.956 Y122.11 E2.26048
G1 X101.472 Y121.578 E2.27114
G1 X101.051 Y120.995 E2.28179
G1 X100.697 Y120.368 E2.29245
G1 X100.414 Y119.707 E2.30311
G1 X100.207 Y119.018 E2.31376
G1 X100.077 Y118.31 E2.32443
G1 X100.026 Y117.499 E2.33646
G1 X100.026 Y97.501 E2.6327
G1 X100.066 Y96.783 E2.64335
G1 X100.185 Y96.073 E2.65402
G1 X100.383 Y95.381 E2.66468
G1 X100.656 Y94.716 E2.67533
G1 X101.001 Y94.084 E2.68599
G1 X101.414 Y93.495 E2.69665
G1 X101.89 Y92.956 E2.7073
G1 X102.422 Y92.472 E2.71796
G1 X103.005 Y92.051 E2.72861
G1 X103.632 Y91.697 E2.73927
G1 X104.293 Y91.414 E2.74993
G1 X104.982 Y91.207 E2.76058
G1 X105.69 Y91.077 E2.77125
G1 X106.501 Y91.026 E2.78328
G1 X108.001 Y91.026 E2.8055
G1 X108.266 Y91.041 E2.80943
G1 X108.501 Y91.026 E2.81292
G1 X110.001 Y91.026 E2.83514
G1 X110.266 Y91.041 E2.83907
G1 X110.501 Y91.026 E2.84256
G1 X112.001 Y91.026 E2.86478
G1 X112.265 Y91.041 E2.8687
G1 X112.5 Y91.026 E2.87219
G1 X114 Y91.026 E2.89441
G1 X114.266 Y91.041 E2.89835
G1 X114.501 Y91.026 E2.90184
G1 X116 Y91.026 E2.92405
G1 X116.265 Y91.041 E2.92798
G1 X116.5 Y91.026 E2.93147
G1 X117.999 Y91.026 E2.95367
G1 X118.264 Y91.041 E2.95761
G1 X118.499 Y91.026 E2.96109
G1 X119.999 Y91.026 E2.98331
G1 X120.264 Y91.041 E2.98725
G1 X120.499 Y91.026 E2.99073
G1 X121.999 Y91.026 E3.01295
G1 X122.264 Y91.041 E3.01689
G1 X122.499 Y91.026 E3.02037
G1 X123.999 Y91.026 E3.04259
G1 X124.264 Y91.041 E3.04653
G1 X124.499 Y91.026 E3.05001
G1 X125.999 Y91.026 E3.07223
G1 X126.717 Y91.066 E3.08289
G1 X127.427 Y91.185 E3.09355
G1 X128.119 Y91.383 E3.10421
G1 X128.784 Y91.656 E3.11486
G1 X129.416 Y92.001 E3.12553
G1 X130.005 Y92.414 E3.13618
G1 X130.544 Y92.89 E3.14684
G1 X131.028 Y93.422 E3.15749
G1 X131.449 Y94.005 E3.16814
G1 X131.803 Y94.632 E3.17881
G1 X132.086 Y95.293 E3.18946
G1 X132.293 Y95.982 E3.20012
G1 X132.423 Y96.69 E3.21078
G1 X132.474 Y97.501 E3.22282
G1 X132.474 Y114.529 E3.47506
G1 X132.586 Y114.791 E3.47928
G1 X132.793 Y115.48 E3.48994
G1 X132.923 Y116.188 E3.5006
G1 X132.974 Y116.999 E3.51264
G1 X132.974 Y117.499 E3.52004
G1 X132.934 Y118.217 E3.5307
G1 X132.815 Y118.927 E3.54136
G1 X132.617 Y119.619 E3.55202
G1 X132.344 Y120.284 E3.56267
G1 X131.999 Y120.916 E3.57334
G1 X131.586 Y121.505 E3.58399
G1 X131.11 Y122.044 E3.59464
M204 S625
M205 X6
G0 F5000 X130.766 Y121.893
M204 S500
M205 X5
G1 F1200 X130.237 Y122.351 E3.60501
G1 X129.659 Y122.746 E3.61538
G1 X129.04 Y123.072 E3.62574
G1 X128.388 Y123.326 E3.63611
G1 X127.711 Y123.503 E3.64647
G1 X127.018 Y123.602 E3.65684
G1 X126.499 Y123.624 E3.66454
G1 X125.499 Y123.624 E3.67935
G1 X125.286 Y123.612 E3.68251
G1 X124.999 Y123.624 E3.68677
G1 X123.499 Y123.624 E3.70899
G1 X123.286 Y123.612 E3.71215
G1 X122.999 Y123.624 E3.7164
G1 X121.499 Y123.624 E3.73862
G1 X121.286 Y123.612 E3.74178
G1 X120.999 Y123.624 E3.74604
G1 X119.499 Y123.624 E3.76826
G1 X119.287 Y123.612 E3.7714
G1 X119 Y123.624 E3.77566
G1 X117.499 Y123.624 E3.79789
G1 X117.286 Y123.612 E3.80105
G1 X116.999 Y123.624 E3.80531
G1 X115.501 Y123.624 E3.8275
G1 X115.288 Y123.612 E3.83066
G1 X115.001 Y123.624 E3.83492
G1 X113.501 Y123.624 E3.85714
G1 X113.288 Y123.612 E3.8603
G1 X113.001 Y123.624 E3.86455
G1 X111.501 Y123.624 E3.88677
G1 X111.288 Y123.612 E3.88993
G1 X111.001 Y123.624 E3.89419
G1 X109.501 Y123.624 E3.91641
G1 X109.288 Y123.612 E3.91957
G1 X109.001 Y123.624 E3.92382
G1 X107.501 Y123.624 E3.94604
G1 X107.288 Y123.612 E3.9492
G1 X107.001 Y123.624 E3.95346
G1 X106.501 Y123.624 E3.96086
G1 X105.802 Y123.584 E3.97123
G1 X105.113 Y123.465 E3.98159
G1 X104.442 Y123.267 E3.99196
G1 X103.797 Y122.995 E4.00233
G1 X103.188 Y122.651 E4.01269
G1 X102.622 Y122.239 E4.02306
G1 X102.107 Y121.766 E4.03341
G1 X101.649 Y121.237 E4.04378
G1 X101.254 Y120.659 E4.05415
G1 X100.928 Y120.04 E4.06451
G1 X100.674 Y119.388 E4.07488
G1 X100.497 Y118.711 E4.08524
G1 X100.398 Y118.018 E4.09561
G1 X100.376 Y117.499 E4.10331
G1 X100.376 Y97.501 E4.39955
G1 X100.416 Y96.802 E4.40992
G1 X100.535 Y96.113 E4.42028
G1 X100.733 Y95.442 E4.43064
G1 X101.005 Y94.797 E4.44101
G1 X101.349 Y94.188 E4.45137
G1 X101.761 Y93.622 E4.46174
G1 X102.234 Y93.107 E4.4721
G1 X102.763 Y92.649 E4.48246
G1 X103.341 Y92.254 E4.49283
G1 X103.96 Y91.928 E4.5032
G1 X104.612 Y91.674 E4.51356
G1 X105.289 Y91.497 E4.52393
G1 X105.982 Y91.398 E4.5343
G1 X106.501 Y91.376 E4.54199
G1 X108.001 Y91.376 E4.56421
G1 X108.214 Y91.388 E4.56737
G1 X108.501 Y91.376 E4.57163
G1 X110.001 Y91.376 E4.59385
G1 X110.214 Y91.388 E4.59701
G1 X110.501 Y91.376 E4.60126
G1 X112.001 Y91.376 E4.62348
G1 X112.213 Y91.388 E4.62663
G1 X112.5 Y91.376 E4.63088
G1 X114 Y91.376 E4.6531
G1 X114.213 Y91.388 E4.65626
G1 X114.501 Y91.376 E4.66053
G1 X116 Y91.376 E4.68274
G1 X116.213 Y91.388 E4.6859
G1 X116.5 Y91.376 E4.69015
G1 X117.999 Y91.376 E4.71236
G1 X118.212 Y91.388 E4.71552
G1 X118.499 Y91.376 E4.71977
G1 X119.999 Y91.376 E4.74199
G1 X120.212 Y91.388 E4.74516
G1 X120.499 Y91.376 E4.74941
G1 X121.999 Y91.376 E4.77163
G1 X122.212 Y91.388 E4.77479
G1 X122.499 Y91.376 E4.77905
G1 X123.999 Y91.376 E4.80127
G1 X124.212 Y91.388 E4.80443
G1 X124.499 Y91.376 E4.80868
G1 X125.999 Y91.376 E4.8309
G1 X126.698 Y91.416 E4.84127
G1 X127.387 Y91.535 E4.85163
G1 X128.058 Y91.733 E4.86199
G1 X128.703 Y92.005 E4.87236
G1 X129.312 Y92.349 E4.88272
G1 X129.878 Y92.761 E4.89309
G1 X130.393 Y93.234 E4.90345
G1 X130.851 Y93.763 E4.91382
G1 X131.246 Y94.341 E4.92419
G1 X131.572 Y94.96 E4.93455
G1 X131.826 Y95.612 E4.94492
G1 X132.003 Y96.289 E4.95528
G1 X132.102 Y96.982 E4.96565
G1 X132.124 Y97.501 E4.97335
G1 X132.124 Y114.591 E5.22651
G1 X132.326 Y115.11 E5.23476
G1 X132.503 Y115.787 E5.24512
G1 X132.602 Y116.48 E5.25549
G1 X132.624 Y116.999 E5.26319
G1 X132.624 Y117.499 E5.27059
G1 X132.584 Y118.198 E5.28097
G1 X132.465 Y118.887 E5.29132
G1 X132.267 Y119.558 E5.30169
G1 X131.995 Y120.203 E5.31206
G1 X131.651 Y120.812 E5.32242
G1 X131.239 Y121.378 E5.33279
G1 X130.766 Y121.893 E5.34315
M204 S625
M205 X6
G0 F5000 X130.422 Y121.737
M204 S500
M205 X5
G1 F1200 X129.897 Y122.168 E5.35321
G1 X129.325 Y122.535 E5.36327
G1 X128.714 Y122.832 E5.37334
G1 X128.072 Y123.056 E5.38341
G1 X127.409 Y123.202 E5.39347
G1 X126.499 Y123.274 E5.40699
G1 X125.499 Y123.274 E5.4218
G1 X125.213 Y123.257 E5.42605
G1 X124.999 Y123.274 E5.42923
G1 X123.499 Y123.274 E5.45145
G1 X123.213 Y123.257 E5.45569
G1 X122.999 Y123.274 E5.45887
G1 X121.499 Y123.274 E5.48109
G1 X121.213 Y123.257 E5.48533
G1 X120.999 Y123.274 E5.48851
G1 X119.499 Y123.274 E5.51073
G1 X119.213 Y123.257 E5.51498
G1 X119 Y123.274 E5.51814
G1 X117.499 Y123.274 E5.54038
G1 X117.213 Y123.257 E5.54462
G1 X116.999 Y123.274 E5.5478
G1 X115.501 Y123.274 E5.56999
G1 X115.215 Y123.257 E5.57424
G1 X115.001 Y123.274 E5.57742
G1 X113.501 Y123.274 E5.59964
G1 X113.215 Y123.257 E5.60388
G1 X113.001 Y123.274 E5.60706
G1 X111.501 Y123.274 E5.62928
G1 X111.215 Y123.257 E5.63353
G1 X111.001 Y123.274 E5.63671
G1 X109.501 Y123.274 E5.65893
G1 X109.215 Y123.257 E5.66317
G1 X109.001 Y123.274 E5.66635
G1 X107.501 Y123.274 E5.68857
G1 X107.215 Y123.257 E5.69281
G1 X107.001 Y123.274 E5.69599
G1 X106.501 Y123.274 E5.7034
G1 X105.823 Y123.234 E5.71346
G1 X105.154 Y123.115 E5.72353
G1 X104.504 Y122.918 E5.73359
G1 X103.881 Y122.646 E5.74366
G1 X103.295 Y122.302 E5.75372
G1 X102.753 Y121.892 E5.76379
G1 X102.263 Y121.422 E5.77385
G1 X101.832 Y120.897 E5.78391
G1 X101.465 Y120.325 E5.79398
G1 X101.168 Y119.714 E5.80404
G1 X100.944 Y119.072 E5.81411
G1 X100.798 Y118.409 E5.82417
G1 X100.726 Y117.499 E5.83769
G1 X100.726 Y97.501 E6.13393
G1 X100.766 Y96.823 E6.14399
G1 X100.885 Y96.154 E6.15406
G1 X101.082 Y95.504 E6.16412
G1 X101.354 Y94.881 E6.17419
G1 X101.698 Y94.295 E6.18425
G1 X102.108 Y93.753 E6.19432
G1 X102.578 Y93.263 E6.20438
G1 X103.103 Y92.832 E6.21444
G1 X103.675 Y92.465 E6.22451
G1 X104.286 Y92.168 E6.23457
G1 X104.928 Y91.944 E6.24464
G1 X105.591 Y91.798 E6.2547
G1 X106.501 Y91.726 E6.26822
G1 X108.001 Y91.726 E6.29044
G1 X108.287 Y91.743 E6.29469
G1 X108.501 Y91.726 E6.29787
G1 X110.001 Y91.726 E6.32009
G1 X110.287 Y91.743 E6.32433
G1 X110.501 Y91.726 E6.32751
G1 X112.001 Y91.726 E6.34973
G1 X112.287 Y91.743 E6.35397
G1 X112.5 Y91.726 E6.35714
G1 X114 Y91.726 E6.37936
G1 X114.287 Y91.743 E6.38362
G1 X114.501 Y91.726 E6.3868
G1 X116 Y91.726 E6.409
G1 X116.286 Y91.743 E6.41325
G1 X116.5 Y91.726 E6.41643
G1 X117.999 Y91.726 E6.43863
G1 X118.285 Y91.743 E6.44288
G1 X118.499 Y91.726 E6.44606
G1 X119.999 Y91.726 E6.46828
G1 X120.285 Y91.743 E6.47252
G1 X120.499 Y91.726 E6.4757
G1 X121.999 Y91.726 E6.49792
G1 X122.285 Y91.743 E6.50217
G1 X122.499 Y91.726 E6.50535
G1 X123.999 Y91.726 E6.52757
G1 X124.285 Y91.743 E6.53181
G1 X124.499 Y91.726 E6.53499
G1 X125.999 Y91.726 E6.55721
G1 X126.677 Y91.766 E6.56727
G1 X127.346 Y91.885 E6.57734
G1 X127.996 Y92.082 E6.5874
G1 X128.619 Y92.354 E6.59747
G1 X129.205 Y92.698 E6.60753
G1 X129.747 Y93.108 E6.6176
G1 X130.237 Y93.578 E6.62766
G1 X130.668 Y94.103 E6.63772
G1 X131.035 Y94.675 E6.64779
G1 X131.332 Y95.286 E6.65785
G1 X131.556 Y95.928 E6.66792
G1 X131.702 Y96.591 E6.67798
G1 X131.774 Y97.501 E6.6915
G1 X131.774 Y114.665 E6.94576
G1 X131.832 Y114.784 E6.94772
G1 X132.056 Y115.426 E6.95779
G1 X132.202 Y116.089 E6.96785
G1 X132.274 Y116.999 E6.98137
G1 X132.274 Y117.499 E6.98878
G1 X132.234 Y118.177 E6.99884
G1 X132.115 Y118.846 E7.0089
G1 X131.918 Y119.496 E7.01896
G1 X131.646 Y120.119 E7.02903
G1 X131.302 Y120.705 E7.0391
G1 X130.892 Y121.247 E7.04917
G1 X130.422 Y121.737 E7.05922
M204 S625
M205 X6
G0 F5000 X130.079 Y121.575
M204 S500
M205 X5
G1 F1200 X129.558 Y121.979 E7.06899
G1 X128.993 Y122.317 E7.07874
G1 X128.391 Y122.583 E7.08849
G1 X127.761 Y122.775 E7.09825
G1 X127.113 Y122.889 E7.108
G1 X126.499 Y122.924 E7.11711
G1 X125.499 Y122.924 E7.13192
G1 X125.257 Y122.909 E7.13551
G1 X124.999 Y122.924 E7.13934
G1 X123.499 Y122.924 E7.16156
G1 X123.257 Y122.909 E7.16515
G1 X122.999 Y122.924 E7.16898
G1 X121.499 Y122.924 E7.1912
G1 X121.257 Y122.909 E7.19479
G1 X120.999 Y122.924 E7.19862
G1 X119.499 Y122.924 E7.22084
G1 X119.258 Y122.909 E7.22442
G1 X119 Y122.924 E7.22824
G1 X117.499 Y122.924 E7.25048
G1 X117.257 Y122.909 E7.25407
G1 X116.999 Y122.924 E7.2579
