;START_OF_HEADER
;HEADER_VERSION:0.1
;FLAVOR:Griffin
;GENERATOR.NAME:Cura_SteamEngine
;GENERATOR.VERSION:2.5.0
;GENERATOR.BUILD_DATE:2017-04-19
;TARGET_MACHINE.NAME:Ultimaker 3
;EXTRUDER_TRAIN.0.INITIAL_TEMPERATURE:200
;EXTRUDER_TRAIN.0.MATERIAL.VOLUME_USED:384
;EXTRUDER_TRAIN.0.MATERIAL.GUID:506c9f0d-e3aa-4bd4-b2d2-23e2425b1aa9
;EXTRUDER_TRAIN.0.NOZZLE.DIAMETER:0.4
;BUILD_PLATE.INITIAL_TEMPERATURE:55
;PRINT.TIME:6643
;PRINT.SIZE.MIN.X:9
;PRINT.SIZE.MIN.Y:6
;PRINT.SIZE.MIN.Z:0.27
;PRINT.SIZE.MAX.X:130.566
;PRINT.SIZE.MAX.Y:121.587
;PRINT.SIZE.MAX.Z:4.5
;END_OF_HEADER
;Generated with Cura_SteamEngine 2.5.0

T0
G92 E0

M109 S200
G0 F15000 X9 Y6 Z2
G280
G1 F1500 E-6.5
;LAYER_COUNT:424
;LAYER:0
M107
M204 S625
M205 X6
G0 F5000 X129.608 Y120.236 Z0.27
M204 S500
M205 X5
;TYPE:SKIRT
G1 F1500 E0
G1 F1200 X129.212 Y120.627 E0.00824
G1 X128.765 Y120.958 E0.01648
G1 X128.275 Y121.222 E0.02473
G1 X127.752 Y121.412 E0.03297
G1 X127.207 Y121.525 E0.04122
G1 X126.696 Y121.56 E0.0488
G1 X107.365 Y121.587 E0.33516
G1 X106.81 Y121.548 E0.3434
G1 X106.414 Y121.47 E0.34938
G1 X105.564 Y121.256 E0.36236
G1 X105.036 Y121.082 E0.3706
G1 X104.537 Y120.833 E0.37886
G1 X104.08 Y120.516 E0.3871
G1 X103.673 Y120.137 E0.39534
G1 X103.324 Y119.704 E0.40358
G1 X103.041 Y119.225 E0.41182
G1 X102.752 Y118.444 E0.42415
G1 X102.536 Y117.586 E0.43726
G1 X102.44 Y117.038 E0.4455
G1 X102.419 Y116.637 E0.45145
G1 X102.436 Y97.301 E0.73788
G1 X102.476 Y96.746 E0.74612
G1 X102.596 Y96.202 E0.75437
G1 X102.792 Y95.681 E0.76262
G1 X103.061 Y95.194 E0.77086
G1 X103.396 Y94.75 E0.7791
G1 X103.792 Y94.359 E0.78734
G1 X104.24 Y94.029 E0.79559
G1 X104.73 Y93.766 E0.80382
G1 X105.253 Y93.576 E0.81207
G1 X105.798 Y93.463 E0.82031
G1 X106.311 Y93.429 E0.82793
G1 X126.691 Y93.43 E1.12982
G1 X127.246 Y93.47 E1.13807
G1 X127.79 Y93.589 E1.14632
G1 X128.311 Y93.785 E1.15456
G1 X128.798 Y94.053 E1.1628
G1 X129.242 Y94.388 E1.17103
G1 X129.634 Y94.784 E1.17929
G1 X129.964 Y95.231 E1.18752
G1 X130.228 Y95.721 E1.19576
G1 X130.418 Y96.244 E1.20401
G1 X130.531 Y96.789 E1.21225
G1 X130.566 Y97.305 E1.21991
G1 X130.566 Y117.685 E1.52181
G1 X130.526 Y118.24 E1.53005
G1 X130.407 Y118.784 E1.5383
G1 X130.211 Y119.304 E1.54653
G1 X129.943 Y119.792 E1.55478
G1 X129.608 Y120.236 E1.56302
M204 S625
M205 X6
G0 F5000 X129.262 Y120.097
M204 S500
M205 X5
G1 F1200 X128.871 Y120.455 E1.57087
G1 X128.43 Y120.751 E1.57874
G1 X127.95 Y120.977 E1.5866
G1 X127.442 Y121.129 E1.59445
G1 X126.696 Y121.21 E1.60557
G1 X107.365 Y121.237 E1.89193
G1 X106.836 Y121.198 E1.89978
G1 X106.499 Y121.13 E1.90488
G1 X105.649 Y120.916 E1.91786
G1 X105.146 Y120.748 E1.92572
G1 X104.674 Y120.507 E1.93357
G1 X104.243 Y120.197 E1.94143
G1 X103.863 Y119.826 E1.9493
G1 X103.544 Y119.402 E1.95716
G1 X103.291 Y118.936 E1.96501
G1 X103.092 Y118.359 E1.97405
G1 X102.876 Y117.501 E1.98716
G1 X102.785 Y116.978 E1.99502
G1 X102.769 Y116.637 E2.00008
G1 X102.786 Y97.301 E2.28651
G1 X102.826 Y96.772 E2.29437
G1 X102.946 Y96.255 E2.30223
G1 X103.141 Y95.761 E2.3101
G1 X103.409 Y95.303 E2.31796
G1 X103.742 Y94.89 E2.32582
G1 X104.134 Y94.532 E2.33368
G1 X104.574 Y94.236 E2.34154
G1 X105.055 Y94.011 E2.3494
G1 X105.563 Y93.859 E2.35726
G1 X106.311 Y93.779 E2.3684
G1 X126.691 Y93.78 E2.6703
G1 X127.22 Y93.82 E2.67816
G1 X127.737 Y93.939 E2.68602
G1 X128.231 Y94.134 E2.69388
G1 X128.689 Y94.401 E2.70174
G1 X129.103 Y94.734 E2.70961
G1 X129.461 Y95.125 E2.71746
G1 X129.757 Y95.566 E2.72533
G1 X129.983 Y96.046 E2.73319
G1 X130.135 Y96.554 E2.74104
G1 X130.216 Y97.305 E2.75223
G1 X130.216 Y117.685 E3.05413
G1 X130.176 Y118.214 E3.06198
G1 X130.057 Y118.731 E3.06984
G1 X129.862 Y119.225 E3.07771
G1 X129.595 Y119.683 E3.08556
G1 X129.262 Y120.097 E3.09343
M204 S625
M205 X6
G0 F5000 X128.917 Y119.949
M204 S500
M205 X5
G1 F1200 X128.531 Y120.272 E3.10089
G1 X128.099 Y120.531 E3.10835
G1 X127.631 Y120.718 E3.11582
G1 X127.14 Y120.828 E3.12327
G1 X126.695 Y120.86 E3.12988
G1 X107.364 Y120.887 E3.41624
G1 X106.862 Y120.848 E3.42369
G1 X106.585 Y120.791 E3.42788
G1 X105.735 Y120.577 E3.44087
G1 X105.258 Y120.416 E3.44833
G1 X104.812 Y120.181 E3.45579
G1 X104.409 Y119.879 E3.46325
G1 X104.059 Y119.517 E3.47071
G1 X103.771 Y119.104 E3.47817
G1 X103.552 Y118.651 E3.48562
G1 X103.431 Y118.273 E3.4915
G1 X103.215 Y117.415 E3.50461
G1 X103.131 Y116.919 E3.51206
G1 X103.119 Y116.637 E3.51624
G1 X103.136 Y97.301 E3.80267
G1 X103.176 Y96.799 E3.81013
G1 X103.296 Y96.31 E3.81759
G1 X103.491 Y95.846 E3.82505
G1 X103.757 Y95.418 E3.83251
G1 X104.087 Y95.038 E3.83997
G1 X104.473 Y94.715 E3.84742
G1 X104.906 Y94.457 E3.85489
G1 X105.374 Y94.271 E3.86235
G1 X105.865 Y94.16 E3.86981
G1 X106.311 Y94.129 E3.87643
G1 X126.691 Y94.13 E4.17832
G1 X127.193 Y94.17 E4.18578
G1 X127.683 Y94.289 E4.19325
G1 X128.147 Y94.484 E4.20071
G1 X128.575 Y94.749 E4.20817
G1 X128.955 Y95.079 E4.21562
G1 X129.279 Y95.465 E4.22309
G1 X129.537 Y95.897 E4.23054
G1 X129.724 Y96.365 E4.23801
G1 X129.834 Y96.856 E4.24546
G1 X129.866 Y97.305 E4.25213
G1 X129.866 Y117.685 E4.55402
G1 X129.826 Y118.187 E4.56148
G1 X129.707 Y118.676 E4.56894
G1 X129.513 Y119.141 E4.5764
G1 X129.247 Y119.569 E4.58387
G1 X128.917 Y119.949 E4.59132
M204 S625
M205 X6
G1 F1500 E-1.90868
G0 F5000 X129.04 Y119.949
G0 X129.028 Y113.966
G0 X124.975 Y113.954
G0 X124.975 Y116.469
M204 S500
M205 X5
;TYPE:SUPPORT
G1 F1500 E4.59132
G1 F1200 X124.975 Y117.547 E4.60729
G1 X124.918 Y117.547 E4.60814
G1 X124.569 Y117.536 E4.61331
G1 X117.431 Y117.536 E4.71905
G1 X117.082 Y117.547 E4.72422
G1 X117.025 Y117.547 E4.72506
G1 X117.025 Y116.469 E4.74103
G1 X115.476 Y116.469 E4.76398
G1 X115.476 Y117.547 E4.77995
G1 X115.419 Y117.547 E4.78079
G1 X115.07 Y117.536 E4.78596
G1 X107.932 Y117.536 E4.8917
G1 X107.583 Y117.547 E4.89687
G1 X107.526 Y117.547 E4.89772
G1 X107.526 Y116.469 E4.91369
G1 X106.459 Y116.469 E4.92949
G1 X106.459 Y108.53 E5.04709
G1 X107.526 Y108.53 E5.0629
G1 X107.526 Y106.97 E5.08601
G1 X106.459 Y106.97 E5.10181
G1 X106.459 Y99.032 E5.2194
G1 X107.526 Y99.026 E5.23521
G1 X107.526 Y97.47 E5.25826
G1 X125.338 Y97.47 E5.52211
G1 X125.72 Y97.453 E5.52778
G1 X126.28 Y97.453 E5.53607
G1 X126.525 Y97.464 E5.53971
G1 X126.525 Y97.47 E5.53979
G1 X124.975 Y97.47 E5.56275
G1 X124.975 Y99.031 E5.58588
G1 X126.525 Y99.031 E5.60884
G1 X126.525 Y106.97 E5.72644
G1 X124.975 Y106.97 E5.7494
G1 X124.975 Y108.53 E5.77251
G1 X126.525 Y108.53 E5.79547
G1 X126.525 Y116.469 E5.91308
G1 X124.975 Y116.469 E5.93604
M204 S625
M205 X6
G1 F1500 E-0.56396
G0 F5000 X122.46 Y116.469
G0 X117.025 Y111.045
G0 X117.025 Y108.53
M204 S500
M205 X5
G1 F1500 E5.93604
G1 F1200 X117.025 Y106.97 E5.95914
G1 X115.476 Y106.97 E5.98209
G1 X115.476 Y108.53 E6.0052
G1 X117.025 Y108.53 E6.02814
M204 S625
M205 X6
G1 F1500 E-0.47186
G0 F5000 X119.54 Y108.53
G0 X119.528 Y104.467
G0 X117.025 Y101.546
G0 X117.025 Y99.031
M204 S500
M205 X5
G1 F1500 E6.02814
G1 F1200 X117.025 Y97.47 E6.05127
G1 X115.476 Y97.47 E6.07421
G1 X115.476 Y99.031 E6.09734
G1 X117.025 Y99.031 E6.12028
M204 S625
M205 X6
G0 F5000 X118.125 Y97.645
M204 S500
M205 X5
G1 F1200 X118.125 Y117.361 E6.41234
M204 S625
M205 X6
G1 F1500 E-0.08766
G0 F5000 X119.54 Y117.361
G0 X119.528 Y113.966
G0 X112.973 Y113.966
G0 X112.961 Y117.361
G0 X113.75 Y117.361
M204 S500
M205 X5
G1 F1500 E6.41234
G1 F1200 X113.75 Y97.645 E6.7044
M204 S625
M205 X6
G1 F1500 E0.2044
G0 F5000 X112.961 Y97.645
G0 X110.041 Y97.645
G0 X109.375 Y97.645
M204 S500
M205 X5
G1 F1500 E6.7044
G1 F1200 X109.375 Y117.361 E6.99646
M204 S625
M205 X6
G1 F1500 E0.49646
G0 F5000 X110.041 Y117.361
G0 X110.029 Y113.966
G0 X106.634 Y113.75
M204 S500
M205 X5
G1 F1500 E6.99646
G1 F1200 X126.35 Y113.75 E7.28852
M204 S625
M205 X6
G1 F1500 E0.78852
G0 F5000 X126.35 Y111.045
G0 X126.35 Y109.375
M204 S500
M205 X5
G1 F1500 E7.28852
G1 F1200 X106.634 Y109.375 E7.58058
M204 S625
M205 X6
G1 F1500 E1.08058
G0 F5000 X106.634 Y111.045
G0 X110.029 Y111.033
G0 X110.029 Y104.467
G0 X106.634 Y104.455
G0 X106.634 Y105
M204 S500
M205 X5
G1 F1500 E7.58058
G1 F1200 X126.35 Y105 E7.87264
M204 S625
M205 X6
G1 F1500 E1.37264
G0 F5000 X126.35 Y104.455
G0 X126.35 Y101.546
G0 X126.35 Y100.625
M204 S500
M205 X5
G1 F1500 E7.87264
G1 F1200 X106.634 Y100.625 E8.1647
M204 S625
M205 X6
G1 F1500 E1.6647
G0 F5000 X106.64 Y101.546
G0 X119.528 Y101.534
G0 X122.46 Y97.645
G0 X122.5 Y97.645
M204 S500
M205 X5
G1 F1500 E8.1647
G1 F1200 X122.5 Y117.361 E8.45676
M204 S625
M205 X6
G1 F1500 E1.95676
G0 F5000 X125.689 Y117.316
G0 X125.745 Y117.26
G0 X125.675 Y117.33
M204 S500
M205 X5
;TYPE:WALL-OUTER
G1 F1500 E8.45676
G1 F1200 X125.675 Y117.169 E8.45914
G1 X125.825 Y117.169 E8.46136
G1 X125.825 Y117.33 E8.46239
G1 X125.675 Y117.33 E8.46341
M204 S625
M205 X6
G0 F5000 X125.675 Y117.169
G0 X125.714 Y117.169
G1 F1500 E1.96341
G0 F5000 X125.714 Y117.269
G0 X125.695 Y117.239
G0 X122.46 Y117.239
G0 X119.54 Y117.239
G0 X116.305 Y117.239
G0 X116.255 Y117.239
G0 X116.325 Y117.169
M204 S500
M205 X5
G1 F1500 E8.46341
G1 F1200 X116.325 Y117.33 E8.46579
G1 X116.176 Y117.33 E8.468
G1 X116.176 Y117.169 E8.46902
G1 X116.325 Y117.169 E8.47003
M204 S625
M205 X6
G0 F5000 X116.325 Y117.33
G0 X116.286 Y117.33
G1 F1500 E1.97003
G0 F5000 X116.286 Y117.23
G0 X116.196 Y117.26
G0 X112.961 Y117.26
G0 X110.041 Y117.26
G0 X106.806 Y117.26
G0 X106.756 Y117.26
G0 X106.826 Y117.33
M204 S500
M205 X5
G1 F1500 E8.47003
G1 F1200 X106.676 Y117.33 E8.47225
G1 X106.676 Y117.169 E8.47464
G1 X106.826 Y117.169 E8.47566
G1 X106.826 Y117.33 E8.47668
M204 S625
M205 X6
G0 F5000 X106.676 Y117.33
G0 X106.676 Y117.28
G1 F1500 E1.97668
G0 F5000 X106.776 Y117.28
G0 X106.746 Y117.189
G0 X106.746 Y113.954
G0 X106.746 Y111.045
G0 X106.746 Y107.81
G0 X106.746 Y107.76
G0 X106.676 Y107.83
M204 S500
M205 X5
G1 F1500 E8.47668
G1 F1200 X106.676 Y107.67 E8.47905
G1 X106.826 Y107.67 E8.48128
G1 X106.826 Y107.83 E8.48229
G1 X106.676 Y107.83 E8.48331
M204 S625
M205 X6
G0 F5000 X106.676 Y107.67
G0 X106.716 Y107.67
G1 F1500 E1.98331
G0 F5000 X106.716 Y107.77
G0 X106.806 Y107.74
G0 X110.041 Y107.74
G0 X112.961 Y107.74
G0 X116.196 Y107.74
G0 X116.246 Y107.74
G0 X116.176 Y107.67
M204 S500
M205 X5
G1 F1500 E8.48331
G1 F1200 X116.325 Y107.67 E8.48551
G1 X116.325 Y107.83 E8.48788
G1 X116.176 Y107.83 E8.48889
G1 X116.176 Y107.67 E8.4899
M204 S625
M205 X6
G0 F5000 X116.325 Y107.67
G0 X116.325 Y107.721
M104 S195
G1 F1500 E1.9899
G0 F5000 X116.225 Y107.721
G0 X116.255 Y107.69
G0 X116.255 Y104.455
G0 X116.255 Y101.546
G0 X116.255 Y98.311
G0 X116.255 Y98.261
G0 X116.325 Y98.331
M204 S500
M205 X5
G1 F1500 E8.4899
G1 F1200 X116.176 Y98.331 E8.49211
G1 X116.176 Y98.17 E8.49449
G1 X116.325 Y98.17 E8.49551
G1 X116.325 Y98.331 E8.49652
M204 S625
M205 X6
G0 F5000 X116.176 Y98.331
G0 X116.176 Y98.28
G1 F1500 E1.99652
G0 F5000 X116.276 Y98.28
G0 X116.196 Y98.26
G0 X112.961 Y98.26
G0 X110.041 Y98.26
G0 X106.806 Y98.26
G0 X106.756 Y98.26
G0 X106.826 Y98.33
M204 S500
M205 X5
G1 F1500 E8.49652
G1 F1200 X106.676 Y98.331 E8.49875
G1 X106.676 Y98.17 E8.50113
G1 X106.826 Y98.17 E8.50215
G1 X106.826 Y98.33 E8.50316
M204 S625
M205 X6
G0 F5000 X106.676 Y98.331
G0 X106.676 Y98.281
G1 F1500 E2.00316
G0 F5000 X106.776 Y98.281
G0 X106.806 Y98.261
G0 X110.041 Y98.261
G0 X112.973 Y101.534
G0 X119.528 Y101.534
G0 X122.46 Y98.261
G0 X125.695 Y98.261
G0 X125.745 Y98.261
G0 X125.675 Y98.331
M204 S500
M205 X5
G1 F1500 E8.50316
G1 F1200 X125.675 Y98.17 E8.50555
G1 X125.825 Y98.17 E8.50777
G1 X125.825 Y98.331 E8.50879
G1 X125.675 Y98.331 E8.50981
M204 S625
M205 X6
G0 F5000 X125.675 Y98.17
G0 X125.714 Y98.17
G1 F1500 E2.00981
G0 F5000 X125.714 Y98.27
G0 X125.745 Y98.311
G0 X125.745 Y101.546
G0 X125.745 Y104.455
G0 X125.745 Y107.69
G0 X125.745 Y107.74
G0 X125.675 Y107.67
M204 S500
M205 X5
G1 F1500 E8.50981
G1 F1200 X125.825 Y107.67 E8.51204
G1 X125.825 Y107.83 E8.51441
G1 X125.675 Y107.83 E8.51542
G1 X125.675 Y107.67 E8.51644
M204 S625
M205 X6
G0 F5000 X125.825 Y107.67
G0 X125.825 Y107.72
G1 F1500 E2.01644
G0 F5000 X125.725 Y107.72
G0 X125.811 Y107.816
G0 X125.811 Y111.045
G0 X126.525 Y113.954
G0 X126.525 Y115.944
;TIME_ELAPSED:50.868968
;LAYER:1
M140 S55
M106 S85
M204 S2812
M205 X18
G0 F10000 X126.525 Y115.944 Z0.28
M204 S1250
M205 X10
;TYPE:SUPPORT
G1 F1500 E8.51644
G1 F1200 X126.525 Y109.055 E8.52022
M204 S2812
M205 X18
M204 S1250
M205 X10
G1 X124.45 Y109.055 E8.52136
M204 S2812
M205 X18
M204 S1250
M205 X10
G1 X124.45 Y106.445 E8.52279
M204 S2812
M205 X18
M204 S1250
M205 X10
G1 X126.525 Y106.445 E8.52393
M204 S2812
M205 X18
M204 S1250
M205 X10
G1 X126.525 Y99.556 E8.52771
M204 S2812
M205 X18
M204 S1250
M205 X10
G1 X124.45 Y99.556 E8.52884
M204 S2812
M205 X18
M204 S1250
M205 X10
G1 X124.45 Y97.47 E8.52999
M204 S2812
M205 X18
M204 S1250
M205 X10
G1 X122.5 Y97.47 E8.53106
M204 S2812
M205 X18
M204 S1250
M205 X10
G1 X122.5 Y117.536 E8.54207
M204 S2812
M205 X18
M204 S1250
M205 X10
G1 X118.125 Y117.536 E8.54447
M204 S2812
M205 X18
M204 S1250
M205 X10
G1 X118.125 Y97.47 E8.55548
M204 S2812
M205 X18
M204 S1250
M205 X10
G1 X117.55 Y97.47 E8.55579
M204 S2812
M205 X18
M204 S1250
M205 X10
G1 X117.55 Y99.556 E8.55694
M204 S2812
M205 X18
M204 S1250
M205 X10
G1 X114.951 Y99.556 E8.55836
M204 S2812
M205 X18
M204 S1250
M205 X10
G1 X114.951 Y97.47 E8.55951
M204 S2812
M205 X18
M204 S1250
M205 X10
G1 X113.75 Y97.47 E8.56017
M204 S2812
M205 X18
M204 S1250
M205 X10
G1 X113.75 Y117.536 E8.57117
M204 S2812
M205 X18
M204 S1250
M205 X10
G1 X109.375 Y117.536 E8.57357
M204 S2812
M205 X18
M204 S1250
M205 X10
G1 X109.375 Y97.47 E8.58458
M204 S2812
M205 X18
M204 S1250
M205 X10
G1 X108.051 Y97.47 E8.58531
M204 S2812
M205 X18
M204 S1250
M205 X10
G1 X108.051 Y99.548 E8.58645
M204 S2812
M205 X18
M204 S1250
M205 X10
G1 X106.459 Y99.557 E8.58732
M204 S2812
M205 X18
M204 S1250
M205 X10
G1 X106.459 Y106.445 E8.5911
M204 S2812
M205 X18
M204 S1250
M205 X10
G1 X108.051 Y106.445 E8.59198
M204 S2812
M205 X18
M204 S1250
M205 X10
G1 X108.051 Y109.055 E8.59341
M204 S2812
M205 X18
M204 S1250
M205 X10
G1 X106.459 Y109.055 E8.59428
M204 S2812
M205 X18
M204 S1250
M205 X10
G1 X106.459 Y115.944 E8.59806
M204 S2812
M205 X18
M204 S1250
M205 X10
G1 X108.051 Y115.944 E8.59893
M204 S2812
M205 X18
M204 S1250
M205 X10
G1 X108.051 Y117.536 E8.59981
M204 S2812
M205 X18
M204 S1250
M205 X10
G1 X109.375 Y117.536 E8.60053
M204 S2812
M205 X18
G1 F1500 E2.10053
G0 F10000 X110.041 Y117.536
G0 X114.951 Y111.045
G0 X114.951 Y109.055
M204 S1250
M205 X10
G1 F1500 E8.60053
G1 F1200 X117.55 Y109.055 E8.60196
M204 S2812
M205 X18
M204 S1250
M205 X10
G1 X117.55 Y106.445 E8.60339
M204 S2812
M205 X18
M204 S1250
M205 X10
G1 X114.951 Y106.445 E8.60482
M204 S2812
M205 X18
M204 S1250
M205 X10
G1 X114.951 Y109.055 E8.60625
M204 S2812
M205 X18
G1 F1500 E2.10625
G0 F10000 X114.951 Y111.045
G0 X119.528 Y113.966
G0 X122.46 Y117.536
G0 X122.5 Y117.536
M204 S1250
M205 X10
G1 F1500 E8.60625
G1 F1200 X124.45 Y117.536 E8.60732
M204 S2812
M205 X18
M204 S1250
M205 X10
G1 X124.45 Y115.944 E8.60819
M204 S2812
M205 X18
M204 S1250
M205 X10
G1 X126.525 Y115.944 E8.60933
M204 S2812
M205 X18
G1 F1500 E2.10933
G0 F10000 X125.811 Y117.183
G0 X125.755 Y117.239
G0 X125.825 Y117.169
M204 S500
M205 X5
;TYPE:WALL-OUTER
G1 F1500 E8.60933
G1 F1200 X125.825 Y117.33 E8.60942
G1 X125.675 Y117.33 E8.6095
G1 X125.675 Y117.169 E8.60954
G1 X125.825 Y117.169 E8.60958
M204 S2812
M205 X18
G0 F10000 X125.825 Y117.33
G0 X125.786 Y117.33
G1 F1500 E2.10958
G0 F10000 X125.786 Y117.23
G0 X125.695 Y117.26
G0 X122.46 Y117.26
G0 X119.54 Y117.26
G0 X116.305 Y117.26
G0 X116.255 Y117.26
G0 X116.325 Y117.33
M204 S500
M205 X5
G1 F1500 E8.60958
G1 F1200 X116.176 Y117.33 E8.60966
G1 X116.176 Y117.169 E8.60975
G1 X116.325 Y117.169 E8.60979
G1 X116.325 Y117.33 E8.60982
M204 S2812
M205 X18
G0 F10000 X116.176 Y117.33
G0 X116.176 Y117.279
G1 F1500 E2.10982
G0 F10000 X116.276 Y117.279
G0 X116.196 Y117.26
G0 X112.961 Y117.26
G0 X110.041 Y117.26
G0 X106.806 Y117.26
G0 X106.756 Y117.26
G0 X106.826 Y117.33
M204 S500
M205 X5
G1 F1500 E8.60982
G1 F1200 X106.676 Y117.33 E8.60991
G1 X106.676 Y117.169 E8.60999
G1 X106.826 Y117.169 E8.61003
G1 X106.826 Y117.33 E8.61007
M204 S2812
M205 X18
G0 F10000 X106.676 Y117.33
G0 X106.676 Y117.28
