;START_OF_HEADER
;HEADER_VERSION:0.1
;FLAVOR:Griffin
;GENERATOR.NAME:Cura_SteamEngine
;GENERATOR.VERSION:2.5.0
;GENERATOR.BUILD_DATE:2017-04-19
;TARGET_MACHINE.NAME:Ultimaker 3
;EXTRUDER_TRAIN.0.INITIAL_TEMPERATURE:200
;EXTRUDER_TRAIN.0.MATERIAL.VOLUME_USED:706
;EXTRUDER_TRAIN.0.MATERIAL.GUID:506c9f0d-e3aa-4bd4-b2d2-23e2425b1aa9
;EXTRUDER_TRAIN.0.NOZZLE.DIAMETER:0.4
;BUILD_PLATE.INITIAL_TEMPERATURE:55
;PRINT.TIME:2253
;PRINT.SIZE.MIN.X:9
;PRINT.SIZE.MIN.Y:6
;PRINT.SIZE.MIN.Z:0.27
;PRINT.SIZE.MAX.X:168.397
;PRINT.SIZE.MAX.Y:124.324
;PRINT.SIZE.MAX.Z:2
;END_OF_HEADER
;Generated with Cura_SteamEngine 2.5.0

T0
G92 E0

M109 S200
G0 F15000 X9 Y6 Z2
G280
G1 F1500 E-6.5
;LAYER_COUNT:27
;LAYER:0
M107
M204 S625
M205 X6
G0 F5000 X164.772 Y100.065 Z0.27
M204 S500
M205 X5
;TYPE:SKIRT
G1 F1500 E0
G1 F1200 X164.102 Y100.376 E0.01094
G1 X163.402 Y100.612 E0.02188
G1 X162.681 Y100.771 E0.03282
G1 X161.946 Y100.852 E0.04378
G1 X161.572 Y100.862 E0.04932
G1 X160.572 Y100.862 E0.06413
G1 X159.834 Y100.822 E0.07508
G1 X159.106 Y100.703 E0.08601
G1 X158.394 Y100.505 E0.09695
G1 X157.708 Y100.232 E0.10789
G1 X157.055 Y99.886 E0.11884
G1 X157.02 Y99.862 E0.11947
G1 X141.572 Y99.862 E0.3483
G1 X140.834 Y99.822 E0.35925
G1 X140.106 Y99.703 E0.37018
G1 X139.394 Y99.505 E0.38113
G1 X138.708 Y99.232 E0.39206
G1 X138.055 Y98.886 E0.40301
G1 X137.443 Y98.472 E0.41395
G1 X136.88 Y97.994 E0.4249
G1 X136.372 Y97.458 E0.43583
G1 X135.925 Y96.87 E0.44678
G1 X135.544 Y96.237 E0.45772
G1 X135.233 Y95.567 E0.46866
G1 X134.997 Y94.867 E0.47961
G1 X134.838 Y94.146 E0.49054
G1 X134.757 Y93.411 E0.5015
G1 X134.747 Y93.037 E0.50704
G1 X134.747 Y90.037 E0.55148
G1 X134.773 Y89.557 E0.5586
G1 X134.757 Y89.411 E0.56077
G1 X134.747 Y89.037 E0.56632
G1 X134.747 Y86.037 E0.61076
G1 X134.773 Y85.557 E0.61788
G1 X134.757 Y85.411 E0.62005
G1 X134.747 Y85.037 E0.6256
G1 X134.747 Y82.037 E0.67004
G1 X134.773 Y81.557 E0.67716
G1 X134.757 Y81.411 E0.67933
G1 X134.747 Y81.037 E0.68487
G1 X134.747 Y78.037 E0.72931
G1 X134.773 Y77.557 E0.73643
G1 X134.757 Y77.411 E0.73861
G1 X134.747 Y77.037 E0.74415
G1 X134.747 Y74.037 E0.78859
G1 X134.787 Y73.299 E0.79954
G1 X134.906 Y72.571 E0.81047
G1 X135.104 Y71.859 E0.82142
G1 X135.377 Y71.173 E0.83235
G1 X135.723 Y70.52 E0.8433
G1 X136.137 Y69.908 E0.85424
G1 X136.615 Y69.345 E0.86518
G1 X137.151 Y68.837 E0.87612
G1 X137.739 Y68.39 E0.88707
G1 X138.372 Y68.009 E0.89801
G1 X139.042 Y67.698 E0.90895
G1 X139.742 Y67.462 E0.91989
G1 X140.463 Y67.303 E0.93083
G1 X141.198 Y67.222 E0.94179
G1 X141.572 Y67.212 E0.94733
G1 X161.572 Y67.212 E1.24359
G1 X162.31 Y67.252 E1.25454
G1 X163.038 Y67.371 E1.26547
G1 X163.75 Y67.569 E1.27642
G1 X164.436 Y67.842 E1.28735
G1 X165.089 Y68.188 E1.2983
G1 X165.701 Y68.602 E1.30925
G1 X166.264 Y69.08 E1.32019
G1 X166.772 Y69.616 E1.33113
G1 X167.219 Y70.204 E1.34207
G1 X167.6 Y70.837 E1.35301
G1 X167.911 Y71.507 E1.36395
G1 X168.147 Y72.207 E1.3749
G1 X168.306 Y72.928 E1.38583
G1 X168.387 Y73.663 E1.39679
G1 X168.397 Y74.037 E1.40233
G1 X168.397 Y75.037 E1.41714
G1 X168.371 Y75.517 E1.42426
G1 X168.387 Y75.663 E1.42644
G1 X168.397 Y76.037 E1.43198
G1 X168.397 Y79.037 E1.47642
G1 X168.371 Y79.517 E1.48354
G1 X168.387 Y79.663 E1.48572
G1 X168.397 Y80.037 E1.49126
G1 X168.397 Y83.037 E1.5357
G1 X168.371 Y83.517 E1.54282
G1 X168.387 Y83.663 E1.545
G1 X168.397 Y84.037 E1.55054
G1 X168.397 Y87.037 E1.59498
G1 X168.371 Y87.517 E1.6021
G1 X168.387 Y87.663 E1.60427
G1 X168.397 Y88.037 E1.60982
G1 X168.397 Y91.037 E1.65426
G1 X168.371 Y91.517 E1.66138
G1 X168.387 Y91.663 E1.66355
G1 X168.397 Y92.037 E1.6691
G1 X168.397 Y94.037 E1.69872
G1 X168.357 Y94.775 E1.70967
G1 X168.238 Y95.503 E1.7206
G1 X168.04 Y96.215 E1.73154
G1 X167.767 Y96.901 E1.74248
G1 X167.421 Y97.554 E1.75343
G1 X167.007 Y98.166 E1.76437
G1 X166.529 Y98.729 E1.77531
G1 X165.993 Y99.237 E1.78625
G1 X165.405 Y99.684 E1.7972
G1 X164.772 Y100.065 E1.80814
M204 S625
M205 X6
G0 F5000 X164.441 Y99.841
M204 S500
M205 X5
G1 F1200 X163.78 Y100.124 E1.81879
G1 X163.091 Y100.331 E1.82945
G1 X162.383 Y100.461 E1.84011
G1 X161.572 Y100.512 E1.85215
G1 X160.572 Y100.512 E1.86696
G1 X159.854 Y100.472 E1.87761
G1 X159.144 Y100.353 E1.88828
G1 X158.452 Y100.155 E1.89894
G1 X157.787 Y99.882 E1.90959
G1 X157.155 Y99.537 E1.92026
G1 X157.119 Y99.512 E1.9209
G1 X141.572 Y99.512 E2.15121
G1 X140.854 Y99.472 E2.16186
G1 X140.144 Y99.353 E2.17252
G1 X139.452 Y99.155 E2.18319
G1 X138.787 Y98.882 E2.19383
G1 X138.155 Y98.537 E2.2045
G1 X137.566 Y98.124 E2.21516
G1 X137.027 Y97.648 E2.22581
G1 X136.543 Y97.116 E2.23646
G1 X136.122 Y96.533 E2.24712
G1 X135.768 Y95.906 E2.25778
G1 X135.485 Y95.245 E2.26843
G1 X135.278 Y94.556 E2.27909
G1 X135.148 Y93.848 E2.28975
G1 X135.097 Y93.037 E2.30179
G1 X135.097 Y90.037 E2.34623
G1 X135.127 Y89.507 E2.35409
G1 X135.097 Y89.037 E2.36107
G1 X135.097 Y86.037 E2.40551
G1 X135.127 Y85.507 E2.41337
G1 X135.097 Y85.037 E2.42035
G1 X135.097 Y82.037 E2.46479
G1 X135.127 Y81.507 E2.47265
G1 X135.097 Y81.037 E2.47963
G1 X135.097 Y78.037 E2.52407
G1 X135.127 Y77.507 E2.53193
G1 X135.097 Y77.037 E2.53891
G1 X135.097 Y74.037 E2.58335
G1 X135.137 Y73.319 E2.594
G1 X135.256 Y72.609 E2.60467
G1 X135.454 Y71.917 E2.61533
G1 X135.727 Y71.252 E2.62598
G1 X136.072 Y70.62 E2.63664
G1 X136.485 Y70.031 E2.6473
G1 X136.961 Y69.492 E2.65795
G1 X137.493 Y69.008 E2.66861
G1 X138.076 Y68.587 E2.67926
G1 X138.703 Y68.233 E2.68992
G1 X139.364 Y67.95 E2.70058
G1 X140.053 Y67.743 E2.71123
G1 X140.761 Y67.613 E2.7219
G1 X141.572 Y67.562 E2.73393
G1 X161.572 Y67.562 E3.0302
G1 X162.29 Y67.602 E3.04085
G1 X163 Y67.721 E3.05152
G1 X163.692 Y67.919 E3.06218
G1 X164.357 Y68.192 E3.07283
G1 X164.989 Y68.537 E3.08349
G1 X165.578 Y68.95 E3.09415
G1 X166.117 Y69.426 E3.1048
G1 X166.601 Y69.958 E3.11546
G1 X167.022 Y70.541 E3.12611
G1 X167.376 Y71.168 E3.13677
G1 X167.659 Y71.829 E3.14743
G1 X167.866 Y72.518 E3.15808
G1 X167.996 Y73.226 E3.16875
G1 X168.047 Y74.037 E3.18078
G1 X168.047 Y75.037 E3.1956
G1 X168.017 Y75.567 E3.20346
G1 X168.047 Y76.037 E3.21044
G1 X168.047 Y79.037 E3.25488
G1 X168.017 Y79.567 E3.26274
G1 X168.047 Y80.037 E3.26972
G1 X168.047 Y83.037 E3.31416
G1 X168.017 Y83.567 E3.32202
G1 X168.047 Y84.037 E3.329
G1 X168.047 Y87.037 E3.37344
G1 X168.017 Y87.567 E3.3813
G1 X168.047 Y88.037 E3.38828
G1 X168.047 Y91.037 E3.43272
G1 X168.017 Y91.567 E3.44058
G1 X168.047 Y92.037 E3.44756
G1 X168.047 Y94.037 E3.47718
G1 X168.007 Y94.755 E3.48784
G1 X167.888 Y95.465 E3.4985
G1 X167.69 Y96.157 E3.50916
G1 X167.417 Y96.822 E3.51981
G1 X167.072 Y97.454 E3.53048
G1 X166.659 Y98.043 E3.54113
G1 X166.183 Y98.582 E3.55179
G1 X165.651 Y99.066 E3.56244
G1 X165.068 Y99.487 E3.57309
G1 X164.441 Y99.841 E3.58376
M204 S625
M205 X6
G0 F5000 X164.113 Y99.61
M204 S500
M205 X5
G1 F1200 X163.461 Y99.864 E3.59412
G1 X162.784 Y100.041 E3.60449
G1 X162.091 Y100.14 E3.61486
G1 X161.572 Y100.162 E3.62255
G1 X160.572 Y100.162 E3.63737
G1 X159.873 Y100.122 E3.64774
G1 X159.184 Y100.003 E3.6581
G1 X158.513 Y99.805 E3.66846
G1 X157.868 Y99.533 E3.67883
G1 X157.259 Y99.189 E3.68919
G1 X157.222 Y99.162 E3.68987
G1 X141.572 Y99.162 E3.9217
G1 X140.873 Y99.122 E3.93207
G1 X140.184 Y99.003 E3.94243
G1 X139.513 Y98.805 E3.95279
G1 X138.868 Y98.533 E3.96316
G1 X138.259 Y98.189 E3.97352
G1 X137.693 Y97.777 E3.98389
G1 X137.178 Y97.304 E3.99425
G1 X136.72 Y96.775 E4.00461
G1 X136.325 Y96.197 E4.01498
G1 X135.999 Y95.578 E4.02535
G1 X135.745 Y94.926 E4.03571
G1 X135.568 Y94.249 E4.04608
G1 X135.469 Y93.556 E4.05645
G1 X135.447 Y93.037 E4.06414
G1 X135.447 Y90.037 E4.10858
G1 X135.473 Y89.584 E4.1153
G1 X135.469 Y89.556 E4.11572
G1 X135.447 Y89.037 E4.12342
G1 X135.447 Y86.037 E4.16786
G1 X135.473 Y85.584 E4.17458
G1 X135.469 Y85.556 E4.175
G1 X135.447 Y85.037 E4.18269
G1 X135.447 Y82.037 E4.22713
G1 X135.473 Y81.584 E4.23386
G1 X135.469 Y81.556 E4.23427
G1 X135.447 Y81.037 E4.24197
G1 X135.447 Y78.037 E4.28641
G1 X135.473 Y77.584 E4.29313
G1 X135.469 Y77.556 E4.29355
G1 X135.447 Y77.037 E4.30124
G1 X135.447 Y74.037 E4.34568
G1 X135.487 Y73.338 E4.35606
G1 X135.606 Y72.649 E4.36641
G1 X135.804 Y71.978 E4.37678
G1 X136.076 Y71.333 E4.38715
G1 X136.42 Y70.724 E4.39751
G1 X136.832 Y70.158 E4.40788
G1 X137.305 Y69.643 E4.41824
G1 X137.834 Y69.185 E4.4286
G1 X138.412 Y68.79 E4.43897
G1 X139.031 Y68.464 E4.44933
G1 X139.683 Y68.21 E4.4597
G1 X140.36 Y68.033 E4.47007
G1 X141.053 Y67.934 E4.48044
G1 X141.572 Y67.912 E4.48813
G1 X161.572 Y67.912 E4.7844
G1 X162.271 Y67.952 E4.79477
G1 X162.96 Y68.071 E4.80513
G1 X163.631 Y68.269 E4.81549
G1 X164.276 Y68.541 E4.82586
G1 X164.885 Y68.885 E4.83622
G1 X165.451 Y69.297 E4.84659
G1 X165.966 Y69.77 E4.85695
G1 X166.424 Y70.299 E4.86731
G1 X166.819 Y70.877 E4.87768
G1 X167.145 Y71.496 E4.88805
G1 X167.399 Y72.148 E4.89841
G1 X167.576 Y72.825 E4.90878
G1 X167.675 Y73.518 E4.91915
G1 X167.697 Y74.037 E4.92684
G1 X167.697 Y75.037 E4.94166
G1 X167.671 Y75.49 E4.94838
G1 X167.675 Y75.518 E4.9488
G1 X167.697 Y76.037 E4.95649
G1 X167.697 Y79.037 E5.00093
G1 X167.671 Y79.49 E5.00765
G1 X167.675 Y79.518 E5.00807
G1 X167.697 Y80.037 E5.01577
G1 X167.697 Y83.037 E5.06021
G1 X167.671 Y83.49 E5.06693
G1 X167.675 Y83.518 E5.06735
G1 X167.697 Y84.037 E5.07504
G1 X167.697 Y87.037 E5.11948
G1 X167.671 Y87.49 E5.1262
G1 X167.675 Y87.518 E5.12662
G1 X167.697 Y88.037 E5.13432
G1 X167.697 Y91.037 E5.17876
G1 X167.671 Y91.49 E5.18548
G1 X167.675 Y91.518 E5.1859
G1 X167.697 Y92.037 E5.19359
G1 X167.697 Y94.037 E5.22322
G1 X167.657 Y94.736 E5.23359
G1 X167.538 Y95.425 E5.24395
G1 X167.34 Y96.096 E5.25431
G1 X167.068 Y96.741 E5.26468
G1 X166.724 Y97.35 E5.27504
G1 X166.312 Y97.916 E5.28541
G1 X165.839 Y98.431 E5.29577
G1 X165.31 Y98.889 E5.30614
G1 X164.732 Y99.284 E5.31651
G1 X164.113 Y99.61 E5.32687
M204 S625
M205 X6
G0 F5000 X163.787 Y99.37
M204 S500
M205 X5
G1 F1200 X163.145 Y99.594 E5.33694
G1 X162.482 Y99.74 E5.347
G1 X161.572 Y99.812 E5.36052
G1 X160.572 Y99.812 E5.37534
G1 X159.894 Y99.772 E5.3854
G1 X159.225 Y99.653 E5.39546
G1 X158.575 Y99.456 E5.40552
G1 X157.952 Y99.184 E5.41559
G1 X157.366 Y98.84 E5.42566
G1 X157.329 Y98.812 E5.42635
G1 X141.572 Y98.812 E5.65976
G1 X140.894 Y98.772 E5.66982
G1 X140.225 Y98.653 E5.67989
G1 X139.575 Y98.456 E5.68995
G1 X138.952 Y98.184 E5.70002
G1 X138.366 Y97.84 E5.71008
G1 X137.824 Y97.43 E5.72015
G1 X137.334 Y96.96 E5.73021
G1 X136.903 Y96.435 E5.74027
G1 X136.536 Y95.863 E5.75034
G1 X136.239 Y95.252 E5.7604
G1 X136.015 Y94.61 E5.77047
G1 X135.869 Y93.947 E5.78053
G1 X135.797 Y93.037 E5.79405
G1 X135.797 Y90.037 E5.83849
G1 X135.831 Y89.464 E5.84699
G1 X135.797 Y89.037 E5.85334
G1 X135.797 Y86.037 E5.89778
G1 X135.831 Y85.464 E5.90628
G1 X135.797 Y85.037 E5.91263
G1 X135.797 Y82.037 E5.95707
G1 X135.831 Y81.464 E5.96557
G1 X135.797 Y81.037 E5.97192
G1 X135.797 Y78.037 E6.01636
G1 X135.831 Y77.464 E6.02486
G1 X135.797 Y77.037 E6.0312
G1 X135.797 Y74.037 E6.07564
G1 X135.837 Y73.359 E6.08571
G1 X135.956 Y72.69 E6.09577
G1 X136.153 Y72.04 E6.10583
G1 X136.425 Y71.417 E6.1159
G1 X136.769 Y70.831 E6.12597
G1 X137.179 Y70.289 E6.13604
G1 X137.649 Y69.799 E6.14609
G1 X138.174 Y69.368 E6.15615
G1 X138.746 Y69.001 E6.16622
G1 X139.357 Y68.704 E6.17629
G1 X139.999 Y68.48 E6.18636
G1 X140.662 Y68.334 E6.19641
G1 X141.572 Y68.262 E6.20994
G1 X161.572 Y68.262 E6.5062
G1 X162.25 Y68.302 E6.51626
G1 X162.919 Y68.421 E6.52633
G1 X163.569 Y68.618 E6.53639
G1 X164.192 Y68.89 E6.54646
G1 X164.778 Y69.234 E6.55653
G1 X165.32 Y69.644 E6.56659
G1 X165.81 Y70.114 E6.57665
G1 X166.241 Y70.639 E6.58671
G1 X166.608 Y71.211 E6.59678
G1 X166.905 Y71.822 E6.60684
G1 X167.129 Y72.464 E6.61692
G1 X167.275 Y73.127 E6.62697
G1 X167.347 Y74.037 E6.6405
G1 X167.347 Y75.037 E6.65531
G1 X167.313 Y75.61 E6.66381
G1 X167.347 Y76.037 E6.67016
G1 X167.347 Y79.037 E6.7146
G1 X167.313 Y79.61 E6.7231
G1 X167.347 Y80.037 E6.72945
G1 X167.347 Y83.037 E6.77389
G1 X167.313 Y83.61 E6.78239
G1 X167.347 Y84.037 E6.78873
G1 X167.347 Y87.037 E6.83317
G1 X167.313 Y87.61 E6.84168
G1 X167.347 Y88.037 E6.84802
G1 X167.347 Y91.037 E6.89246
G1 X167.313 Y91.61 E6.90096
G1 X167.347 Y92.037 E6.90731
G1 X167.347 Y94.037 E6.93694
G1 X167.307 Y94.715 E6.947
G1 X167.188 Y95.384 E6.95706
G1 X166.991 Y96.034 E6.96712
G1 X166.719 Y96.657 E6.97719
G1 X166.375 Y97.243 E6.98726
G1 X165.965 Y97.785 E6.99733
G1 X165.495 Y98.275 E7.00739
G1 X164.97 Y98.706 E7.01745
G1 X164.398 Y99.073 E7.02751
G1 X163.787 Y99.37 E7.03758
M204 S625
M205 X6
G0 F5000 X163.464 Y99.121
M204 S500
M205 X5
G1 F1200 X162.834 Y99.313 E7.04733
G1 X162.186 Y99.427 E7.05708
G1 X161.572 Y99.462 E7.06619
G1 X160.572 Y99.462 E7.081
G1 X159.915 Y99.422 E7.09075
G1 X159.267 Y99.303 E7.10051
G1 X158.639 Y99.106 E7.11026
G1 X158.039 Y98.834 E7.12002
G1 X157.476 Y98.492 E7.12978
G1 X157.438 Y98.462 E7.1305
G1 X141.572 Y98.462 E7.36553
G1 X140.915 Y98.422 E7.37528
G1 X140.267 Y98.303 E7.38504
G1 X139.639 Y98.106 E7.39479
G1 X139.039 Y97.834 E7.40454
G1 X138.476 Y97.492 E7.4143
G1 X137.959 Y97.084 E7.42406
G1 X137.496 Y96.617 E7.4338
G1 X137.092 Y96.096 E7.44357
G1 X136.754 Y95.531 E7.45332
G1 X136.488 Y94.929 E7.46307
G1 X136.296 Y94.299 E7.47282
G1 X136.182 Y93.651 E7.48257
G1 X136.147 Y93.037 E7.49168
G1 X136.147 Y90.037 E7.53612
G1 X136.176 Y89.553 E7.5433
G1 X136.147 Y89.037 E7.55096
G1 X136.147 Y86.037 E7.5954
G1 X136.176 Y85.553 E7.60258
G1 X136.147 Y85.037 E7.61024
G1 X136.147 Y82.037 E7.65468
G1 X136.176 Y81.553 E7.66186
G1 X136.147 Y81.037 E7.66952
G1 X136.147 Y78.037 E7.71396
G1 X136.176 Y77.553 E7.72114
G1 X136.147 Y77.037 E7.72879
G1 X136.147 Y74.037 E7.77323
G1 X136.187 Y73.38 E7.78298
G1 X136.306 Y72.732 E7.79274
G1 X136.503 Y72.104 E7.80249
G1 X136.775 Y71.504 E7.81225
G1 X137.117 Y70.941 E7.82201
G1 X137.525 Y70.424 E7.83177
G1 X137.992 Y69.961 E7.84151
G1 X138.513 Y69.557 E7.85127
G1 X139.078 Y69.219 E7.86103
G1 X139.68 Y68.953 E7.87078
G1 X140.31 Y68.761 E7.88053
G1 X140.958 Y68.647 E7.89028
G1 X141.572 Y68.612 E7.89939
G1 X161.572 Y68.612 E8.19565
G1 X162.229 Y68.652 E8.2054
G1 X162.877 Y68.771 E8.21516
G1 X163.505 Y68.968 E8.22491
G1 X164.105 Y69.24 E8.23467
G1 X164.668 Y69.582 E8.24443
G1 X165.185 Y69.99 E8.25419
G1 X165.648 Y70.457 E8.26393
G1 X166.052 Y70.978 E8.27369
G1 X166.39 Y71.543 E8.28345
G1 X166.656 Y72.145 E8.2932
G1 X166.848 Y72.775 E8.30295
G1 X166.962 Y73.423 E8.3127
G1 X166.997 Y74.037 E8.32181
G1 X166.997 Y75.037 E8.33662
G1 X166.968 Y75.521 E8.34381
G1 X166.997 Y76.037 E8.35146
G1 X166.997 Y79.037 E8.3959
G1 X166.968 Y79.521 E8.40308
G1 X166.997 Y80.037 E8.41074
G1 X166.997 Y83.037 E8.45518
G1 X166.968 Y83.521 E8.46236
G1 X166.997 Y84.037 E8.47002
G1 X166.997 Y87.037 E8.51446
G1 X166.968 Y87.521 E8.52164
G1 X166.997 Y88.037 E8.5293
G1 X166.997 Y91.037 E8.57374
G1 X166.968 Y91.521 E8.58092
G1 X166.997 Y92.037 E8.58857
G1 X166.997 Y94.037 E8.6182
G1 X166.957 Y94.694 E8.62795
G1 X166.838 Y95.342 E8.63771
G1 X166.641 Y95.97 E8.64746
G1 X166.369 Y96.57 E8.65722
G1 X166.027 Y97.133 E8.66698
G1 X165.619 Y97.65 E8.67673
G1 X165.152 Y98.113 E8.68647
G1 X164.631 Y98.517 E8.69624
G1 X164.066 Y98.855 E8.70599
G1 X163.464 Y99.121 E8.71574
M204 S625
M205 X6
G0 F5000 X163.145 Y98.862
M204 S500
M205 X5
G1 F1200 X162.528 Y99.021 E8.72518
G1 X161.896 Y99.102 E8.73462
G1 X161.572 Y99.112 E8.73942
G1 X160.572 Y99.112 E8.75423
G1 X159.936 Y99.072 E8.76367
G1 X159.311 Y98.953 E8.7731
G1 X158.705 Y98.756 E8.78254
G1 X158.129 Y98.485 E8.79197
G1 X157.591 Y98.144 E8.8014
G1 X157.552 Y98.112 E8.80215
G1 X141.572 Y98.112 E9.03887
G1 X140.936 Y98.072 E9.04831
G1 X140.311 Y97.953 E9.05773
G1 X139.705 Y97.756 E9.06717
G1 X139.129 Y97.485 E9.0766
G1 X138.591 Y97.144 E9.08604
G1 X138.1 Y96.738 E9.09547
G1 X137.664 Y96.274 E9.10491
G1 X137.289 Y95.759 E9.11434
G1 X136.982 Y95.202 E9.12376
G1 X136.747 Y94.61 E9.1332
G1 X136.588 Y93.993 E9.14264
G1 X136.507 Y93.361 E9.15208
G1 X136.497 Y93.037 E9.15688
G1 X136.497 Y90.037 E9.20132
G1 X136.529 Y89.531 E9.20883
G1 X136.507 Y89.361 E9.21137
G1 X136.497 Y89.037 E9.21617
G1 X136.497 Y86.037 E9.26061
G1 X136.529 Y85.531 E9.26812
G1 X136.507 Y85.361 E9.27066
G1 X136.497 Y85.037 E9.27546
